!!!!SEGMENT: pl-kk--kk-i-349_anonim--sub-tuum-praesidium.krn
!!!cenid: 17xx:2163
!!!COM: Anonim
!!!COM-rismid: pe30004985
!!!CDT:
!!!CNT:
!!!OTL: Sub tuum praesidium
!!!PDT:
!!!AGN: Sacred
!!!SMS-siglum: PL-Kk
!!!SMS-shelfmark: Kk.I.349
!!!SMS-shelfwork: W
!!!SMS-variant:
!!!SMS-altvar:
!!!NIFC-rismid: 1001145634
!!!URL-scan: http://repozytorium.nifc.pl/skany/pl-kk-nut--i-349
!!!ONB-nifc:
**kern	**fba	**kern	**dynam	**kern	**dynam	**kern	**text	**kern	**text	**kern	**text	**kern	**text	**kern	**kern
*part9	*part9	*part8	*	*part7	*part7	*part6	*part6	*part5	*part5	*part4	*part4	*part3	*part3	*part2	*part1
*staff9	*staff9	*staff8	*	*staff7	*	*staff6	*staff6	*staff5	*staff5	*staff4	*staff4	*staff3	*staff3	*staff2	*staff1
*I"Organo è Violone.	*	*I"Violino 2do.	*	*I"Violino 1mo.	*	*I"Baſso Voce.	*	*I"Tenore.	*	*I"Alto.	*	*I"Canto.	*	*I"Tromba 2da ex B.	*I"Tromba 1ma. ex B.
*I'org	*	*I'vl 2	*	*I'vl 1	*	*I'B	*	*I'T	*	*I'A	*	*I'S	*	*I'tr 2 in B	*I'tr 1 in B
*clefF4	*	*clefG2	*	*clefG2	*	*clefF4	*	*clefC4	*	*clefC3	*	*clefC1	*	*clefG2	*clefG2
*	*	*	*	*	*	*	*	*	*	*	*	*	*	*ITrd1c2	*ITrd1c2
*	*	*	*	*	*	*	*	*	*	*	*	*ok[e-b-]	*	*	*
*k[b-e-]	*	*k[b-e-]	*	*k[b-e-]	*	*k[b-e-]	*	*k[b-e-]	*	*k[b-e-]	*	*k[b-e-]	*	*k[b-e-]	*k[b-e-]
*M4/4	*	*M4/4	*	*M4/4	*	*M4/4	*	*M4/4	*	*M4/4	*	*M4/4	*	*M4/4	*M4/4
*met(c)	*	*met(c)	*	*met(c)	*	*met(c)	*	*met(c)	*	*met(c)	*	*met(c)	*	*met(c)	*met(c)
=1	=1	=1	=1	=1	=1	=1	=1	=1	=1	=1	=1	=1	=1	=1	=1
!	!	!LO:TX:a:t=T.	!	!	!	!	!	!	!	!	!	!	!	!	!LO:TX:a:t=T.
!LO:TX:b:t=Sub tuum psidium	!	!LO:TX:b:t=Sub Tuum	!	!LO:TX:b:t=Sub Tuum.	!	!LO:TX:a:t=T.	!	!LO:TX:a:t=T.	!	!LO:TX:a:t=Tutti.	!	!LO:TX:a:t=T.	!	!LO:TX:b:t=Sub tuum	!LO:TX:b:t=Sub tuum.
!LO:TX:t=P:problem:przed kluczem inicjał S	!	!LO:TX:t=P:problem:przed kluczem inicjał S	!	!LO:TX:t=P:problem:przed kluczem inicjał S	!	!LO:TX:t=P:problem:przed kluczem inicjał S	!	!LO:TX:t=P:problem:przed kluczem inicjał S	!	!LO:TX:t=P:problem:przed kluczem inicjał S	!	!LO:TX:t=P:problem:przed kluczem inicjał S	!	!LO:TX:t=P:problem:przed kluczem inicjał S	!LO:TX:t=P:problem:przed kluczem inicjał S
4r	.	4r	.	4r	.	4r	.	4r	.	4r	.	4r	.	4r	4r
!LO:TX:a:t=Tutti	!	!	!	!	!	!	!	!	!	!	!	!	!	!LO:TX:a:t=T.	!
4B-\	.	4dd\|	.	4ff\|	.	4B-\	Sub	4d\	Sub	4f\	Sub	4b-\	Sub	4b-\	4dd\
4A\	6	4cc\|	.	4ff\|	.	4A\	Tu-	4c\	Tu-	4f\	Tu-	4cc\	Tu-	4f/|	4cc\|
4F\	.	4cc\|	.	4aan\|	.	4F\	-um	4c\	-um	4f\	-um	4a\	-um	4f/|	4cc\|
=2	=2	=2	=2	=2	=2	=2	=2	=2	=2	=2	=2	=2	=2	=2	=2
4r	.	4r	.	4r	.	4r	.	4r	.	4r	.	4r	.	4r	4r
*	*	*	*	*	*	*	*ij	*	*ij	*	*ij	*	*ij	*	*
4B-\	.	4dd\	.	4ff\	.	4B-\	Sub	4B-\	Sub	4d\	Sub	4f/	Sub	4B-/	4B-/
4G\	-6r	4ee-X\	.	4bb-\	.	4G\	Tu-	4B-\	Tu-	8e-\	Tu-	4g/	Tu-	4B-/	4B-/
.	.	.	.	.	.	.	.	.	.	8e-\	-um	.	.	.	.
*	*	*	*	*	*	*	*	*	*	*	*Xij	*	*	*	*
4D\	6	4ff\	.	4bb-\	.	8D\	-um	8d,<\	-um	[<4f\	prae-	8b-\	-um	4B-/	4B-/
*	*	*	*	*	*	*	*Xij	*	*Xij	*	*	*	*Xij	*	*
.	.	.	.	.	.	8D\	prae-	8d\	prae-	.	.	8b-\	prae-	.	.
=3	=3	=3	=3	=3	=3	=3	=3	=3	=3	=3	=3	=3	=3	=3	=3
4.E-X\	98	4b-\	.	4.gg\	.	4.E-\	-si-	4.B-\	-si-	8f\L]	.	4.g/	-si-	8B-/L	8B-/L
.	.	.	.	.	.	.	.	.	.	16e-X\L	.	.	.	8B-/	8B-/
.	.	.	.	.	.	.	.	.	.	16d\JJ	.	.	.	.	.
.	.	4ee-\	.	.	.	.	.	.	.	8.e-T\	-si-	.	.	8B-/	8B-/
8E-\	.	.	.	8gg\	.	8E-\	-di-	8c\	-di-	.	.	8g/	-di-	8B-/J	8B-/J
.	.	.	.	.	.	.	.	.	.	16e-\	-di-	.	.	.	.
8BB-,</	.	8dd\L	.	8ff\L	.	8BB-,</	-um	4d\	-um	8d,<\	-um	4f/	-um	8B-/	8B-/
8BB-/L	3	8dd\J	.	8ff\J	.	8BB-/L	Con-	.	.	8d\L	con-	.	.	8r	8r
8C/	3	8cc\L	.	8ee-X\L	.	8C/	.	4r	.	8e-\	.	4r	.	4r	4r
8D/J	3	16b-\L	.	16dd\L	.	8D/J	.	.	.	8f\J	.	.	.	.	.
.	.	16a\JJ	.	16cc\JJ	.	.	.	.	.	.	.	.	.	.	.
=4	=4	=4	=4	=4	=4	=4	=4	=4	=4	=4	=4	=4	=4	=4	=4
8E-\L	5 3	8g/L	.	8b-\L	.	8.E-\	-fu-	8r	.	8.g\	-fu-	8r	.	0r	0r
8E-\	.	8g/	.	8b-\	.	.	.	8G/L	con-	.	.	8b-\L	con-	.	.
.	.	.	.	.	.	16E-\	-gi-	.	.	16g\	-gi-	.	.	.	.
8E-\	6 4	8a/	.	8cc\	.	8E-,<\	-mus	8A/	.	8g,<\	-mus	8cc\	.	.	.
8D\J	6	8b-/J	.	8dd\J	.	8D\	con-	8B-/J	.	8f\	con-	8dd\J	.	.	.
8C/L	.	8cc\L	.	8ee-X\L	.	8C/L	.	8.c\	-fu-	8e-\L	.	8.ee-X\	-fu-	.	.
8D/	.	8cc\	.	8ee-\	.	8D/	.	.	.	8f\	.	.	.	.	.
.	.	.	.	.	.	.	.	16c\	-gi-	.	.	16ee-\	-gi-	.	.
8E-/	6	8cc\	.	8ee-\	.	8E-/	.	8c,<\	-m(us)	8g\	.	8ee-,>\	-m(us)	.	.
*	*	*	*	*	*	*	*	*	*ij	*	*	*	*ij	*	*
8F/J	7	8cc\J	.	8ee-\J	.	8F/J	.	8c\	con-	8a-X\J	.	8ee-\	con-	.	.
=5	=5	=5	=5	=5	=5	=5	=5	=5	=5	=5	=5	=5	=5	=5	=5
!LO:TX:t=P:problem:mixed beam	!	!	!	!	!	!	!	!	!	!	!	!	!	!	!
8G\L	n_	8bn\L	.	8dd\L	.	8G\	-fu-	8Bn\	-fu-	8g\	-fu-	8dd\	-fu-	.	.
8GG/J	X	8b\J	.	16dd\L	.	16G\	-gi-	16B\	-gi-	16g\	-gi-	16dd\	-gi-	.	.
!	!	!	!	!	!	!LO:SIC:v:t=custos D	!	!	!	!	!	!	!	!	!
.	.	.	.	16dd\JJ	.	16G\	-m(us)	16B\	-m(us)	16g\	-m(us)	16dd\	-m(us)	.	.
*	*	*	*	*	*	*	*	*	*Xij	*	*	*	*Xij	*	*
!	!	!	!	!	!	!LO:LB:g=original	!	!	!	!	!	!	!	!	!
=-	=-	=-	=-	=-	=-	=-	=-	=-	=-	=-	=-	=-	=-	=-	=-
!	!	!	!	!	!	!	!	!	!	!LO:SIC:v:t=custos g	!	!	!	!	!
8r	.	4.dd\	.	4.ff\	.	8r	.	4.d\	con-	4r	.	4.ff\	con-	.	.
8D\	-	.	.	.	.	8D\	con-	.	.	.	.	.	.	.	.
!	!	!	!	!	!	!	!	!	!	!LO:LB:g=original	!	!	!	!	!
=-	=-	=-	=-	=-	=-	=-	=-	=-	=-	=-	=-	=-	=-	=-	=-
4.E-\	7 9	.	.	.	.	(4.E-\	.	.	.	4.g\	con-	.	.	.	.
.	.	16cc\LL	.	16ee-X\LL	.	.	.	16c\LL	.	.	.	16ee-X\LL	.	.	.
!	!	!	!	!	!	!	!	!LO:SIC:v:t=custos c	!	!	!	!	!	!	!
.	6 8	16bn\JJ	.	16dd\JJ	.	.	.	16Bn\JJ	.	.	.	16dd\JJ	.	.	.
!	!	!	!	!	!	!	!	!LO:LB:g=original	!	!	!	!	!	!	!
=-	=-	=-	=-	=-	=-	=-	=-	=-	=-	=-	=-	=-	=-	=-	=-
!	!	!	!	!	!	!	!	!	!	!	!	!LO:SIC:v:t=custos dd	!	!	!
.	.	[<4cc\	.	8ee-\L	.	.	.	[<4c\	.	.	.	4ee-\	.	.	.
!LO:SIC:v:t=custos G	!	!	!	!	!	!	!	!	!	!	!	!	!	!	!
8F\	7 5	.	.	8ee-\J	.	8F\)	.	.	.	8a-X\	.	.	.	.	.
!LO:LB:g=original	!	!	!	!	!	!	!	!	!	!	!	!LO:LB:g=original	!	!	!
=6	=6	=6	=6	=6	=6	=6	=6	=6	=6	=6	=6	=6	=6	=6	=6
4.G\	43	8cc\]	.	8dd\L	.	4.G\	-fu-	8c\L]	.	4.g\	-fu-	4.ddt\	-fu-	1r	1r
.	.	16bn\LL	.	8g\	.	.	.	16Bn\L	.	.	.	.	.	.	.
.	.	16a\JJ	.	.	.	.	.	16A\JJ	.	.	.	.	.	.	.
.	.	8.bnt\L	.	8gg\	.	.	.	8.Bn\	-fu-	.	.	.	.	.	.
8GG/	n	.	.	8ff\J	.	8GG/	-gi-	.	.	8g\	-gi-	8dd\	-gi-	.	.
!	!	!LO:SIC:v:t=custos cc	!	!	!	!	!	!	!	!	!	!	!	!	!
.	.	16b\Jk	.	.	.	.	.	16B\	-gi-	.	.	.	.	.	.
!	!	!LO:LB:g=original	!	!	!	!	!	!	!	!	!	!	!	!	!
=-	=-	=-	=-	=-	=-	=-	=-	=-	=-	=-	=-	=-	=-	=-	=-
!	!	!LO:TX:t=P:problem:mixed beam	!	!	!	!	!	!	!	!	!	!	!	!	!
4C/	.	8cc\L	.	8ee-\L	.	4C,</	-mus	4c\	-mus	4e-\	-m(us)	4b-\	-mus	.	.
.	.	8e-/	.	8g\	.	.	.	.	.	.	.	.	.	.	.
8c\L	.	8g/	.	8ee-\	.	8c\	San-	8c\	San-	8g\	San-	8ee-X\	San-	.	.
!	!	!	!	!LO:SIC:v:t=custos ee	!	!	!	!	!	!	!	!	!	!	!
8B-X\J	2	8g/J	.	8ee-\J	.	8B-X\	-cta	8c\	-cta	8g\	-cta	8ee-\	-cta	.	.
!	!	!	!	!LO:LB:g=original	!	!	!	!	!	!	!	!	!	!	!
=7	=7	=7	=7	=7	=7	=7	=7	=7	=7	=7	=7	=7	=7	=7	=7
!	!	!LO:TX:t=P:problem:mixed beam	!	!LO:TX:t=P:problem:mixed beam	!	!	!	!	!	!	!	!	!	!	!
4An\	6 5	8cc\L	.	8ee-\L	.	4An\	De-	4c\	De-	4f\	De-	4ee-\	De-	8r	8r
.	.	8cc\	.	8f/	.	.	.	.	.	.	.	.	.	8f/L	8cc\L
*	*	*	*	*	*	*	*	*2\right	*	*	*	*	*	*	*
4B-\	.	8f/	.	8dd\	.	4B-\	-i	2B-\	-i	4f\	-i	4dd\	-i	8b-/	8dd\
.	.	8f/J	.	8dd\J	.	.	.	.	.	.	.	.	.	8dd/J	8ff\J
4E-X\	6 5	4g/	.	8cc\L	.	4E-X\	Ge-	.	.	4g\	Ge-	4.ccT\	Ge-	8b-\L	8gg\L
.	.	.	.	8bb-\	.	.	.	.	.	.	.	.	.	16cc\L	16ee-\L
.	.	.	.	.	.	.	.	.	.	.	.	.	.	16b-\JJ	16dd\JJ
4F\	.	8a/L	.	8cc\	.	8.F\	.	8.A\	Ge-	8.f\	.	.	.	16f/LL	8cc\L
.	.	.	.	.	.	.	.	.	.	.	.	.	.	16f/	.
.	.	8cc/J	.	8aa\J	.	.	.	.	.	.	.	8cc\	-ni	16f/	16cc\L
.	.	.	.	.	.	16F\	-ni-	16A\	-ni-	16f\	-ni-	.	.	16f/JJ	16cc\JJ
=8	=8	=8	=8	=8	=8	=8	=8	=8	=8	=8	=8	=8	=8	=8	=8
4BB-/	.	4dd\	.	4bb-\	.	4BB-/	-trix	4B-\	-trix	4d\	-trix	4b-,<\	-trix	4d/	4b-\
4F#X\	6 5	8dd\L	.	4aa\	.	4r	.	4r	.	4r	.	8dd\	San-	4r	4r
.	.	8cc\J	.	.	.	.	.	.	.	.	.	8cc\	-cta	.	.
4G\	-	4b-X\	.	4bb-\	.	4G\	San-	4E-/	San-	4r	.	4b-\	san-	2r	2r
4GG/	n	4bn\	.	4dd\	.	4GG/	-cta	4E-/	-cta	8g\	-San-	4bn\	.	.	.
.	.	.	.	.	.	.	.	.	.	8f\	-cta	.	.	.	.
=9	=9	=9	=9	=9	=9	=9	=9	=9	=9	=9	=9	=9	=9	=9	=9
*	*	*	*	*	*	*	*	*	*	*	*ij	*	*	*	*
!LO:TX:a:t=P:problem:znak cyfrowania nad nutą	!	!	!	!	!	!	!	!	!	!	!	!	!	!	!
4C/	-	4cc\	.	4ee-X\	.	(4C/	San-	(4G/	San-	4e-X\	San-	4cc\	.	00r	00r
!LO:TX:a:t=P:problem:znak cyfrowania nad nutą	!	!	!	!	!	!	!	!	!	!	!	!	!	!	!
4AA/	#	4cc#X\	.	4een\	.	4AA/)	.	4A/)	.	4en\	-cta	4cc#X,<\	-cta	.	.
*	*	*	*	*	*	*	*	*	*	*	*Xij	*	*	*	*
4D\	-	8dd\L	.	8ff\L	.	4D,</	-cta	4A,</	-cta	8f\	De-	8dd\	De-	.	.
.	.	8een\J	.	8gg\J	.	.	.	.	.	8g\	-i	8een\	-i	.	.
*	*	*	*	*	*	*	*ij	*	*ij	*	*	*	*	*	*
4d\	.	[<4ff\	.	4aa\	.	8d\	San-	8d\	San-	4an\	Ge-	[<4ff\	Ge-	.	.
.	.	.	.	.	.	8d\	-cta	8d\	-cta	.	.	.	.	.	.
=10	=10	=10	=10	=10	=10	=10	=10	=10	=10	=10	=10	=10	=10	=10	=10
*	*	*	*	*	*	*	*Xij	*	*Xij	*2\right	*	*	*	*	*
4G\	2	8ff\L]	.	8bb-\L	.	8G\	De-	4d\	De-	2b-X\	.	4ff\]	.	.	.
.	.	16gg\L	.	8bb-\	.	8G\	-i	.	.	.	.	.	.	.	.
.	.	16ff\JJ	.	.	.	.	.	.	.	.	.	.	.	.	.
(<4.G\	6 5	8een\L	.	8bb-\	.	4.G\	Ge-	2en\	.	.	.	8een\L	.	.	.
.	#4r_ 2	8dd\J	.	8bb-\J	.	.	.	.	.	.	.	8dd\J	.	.	.
.	X	8cc#X\L	.	4aa\	.	.	.	.	.	4.a\	.	8cc#X\L	.	.	.
16A\LL)	.	8a\J	.	.	.	16A\LL	.	.	.	.	.	8a\J	.	.	.
16G\JJ	.	.	.	.	.	16G\JJ	.	.	.	.	.	.	.	.	.
8F\L	6	[<4dd\	.	8aa\L	.	8F\L	.	4f\	-i	.	.	[<4dd\	.	.	.
8G\J	7 5	.	.	8ff\J	.	8G\J	.	.	.	8b-\	.	.	.	.	.
!	!	!	!	!	!	!LO:LB:g=original	!	!	!	!	!	!	!	!	!
=11	=11	=11	=11	=11	=11	=11	=11	=11	=11	=11	=11	=11	=11	=11	=11
4A\	4	4dd\]	.	4een\	.	4.A\	.	4.en\	Ge-	4.a\	.	4dd\]	.	.	.
4AA/	#3r	4cc#X\	.	8aa\L	.	.	.	.	.	.	.	8.cc#Xt\	.	.	.
.	.	.	.	8gg\J	.	8AA/	-ni-	8e\	-ni-	8a\	-ni-	.	.	.	.
.	.	.	.	.	.	.	.	.	.	.	.	16cc#\	-ni-	.	.
4D/	.	4dd\	.	4ff\	.	4D/	-trix	4d\	-trix	4f\	-trix	4dd,<\	-trix	.	.
4r	.	8ff\L	.	4r	.	4r	.	4r	.	4r	.	8ff\	San-	.	.
.	.	8ee-X\J	.	.	.	.	.	.	.	.	.	8ee-X\	-cta	.	.
!	!	!	!	!	!	!	!	!LO:LB:g=original	!	!	!	!LO:LB:g=original	!	!	!
=12	=12	=12	=12	=12	=12	=12	=12	=12	=12	=12	=12	=12	=12	=12	=12
4r	.	16dd\LL	.	4r	.	4r	.	4r	.	4r	.	16dd\LL	San-	.	.
.	.	16cc\	.	.	.	.	.	.	.	.	.	16cc\	.	.	.
.	.	16dd\	.	.	.	.	.	.	.	.	.	16dd\	.	.	.
.	.	16ee-X\JJ	.	.	.	.	.	.	.	.	.	16ee-\JJ	.	.	.
8B-\L	.	8dd\L	.	8ff\L	.	8B-\	San-	8B-\	San-	8f\	San-	8dd\L	.	.	.
!LO:SIC:v:t=custos G	!	!LO:SIC:v:t=custos b-	!	!	!	!	!	!	!	!	!	!	!	!	!
8A\J	6	8cc\J	.	8aa\J	.	8A\	-cta	8c\	-cta	8f\	-cta	8cc\J	.	.	.
!LO:LB:g=original	!	!LO:LB:g=original	!	!	!	!	!	!	!	!	!	!	!	!	!
=-	=-	=-	=-	=-	=-	=-	=-	=-	=-	=-	=-	=-	=-	=-	=-
16G\LL	-	8b-\L	.	4dd\	.	16G\LL	San-	4d\	De-	4.g\	De-	8b-\L	.	.	.
16F\	.	.	.	.	.	16F\	.	.	.	.	.	.	.	.	.
16G\	.	8cc\J	.	.	.	16G\	.	.	.	.	.	8cc\J	.	.	.
16A\JJ	.	.	.	.	.	16A\JJ	.	.	.	.	.	.	.	.	.
8G\L	.	[<4dd\	.	8bb-\L	.	8G\	.	4d\	-i	.	.	[<4dd\	.	.	.
8F\J	6	.	.	8aa\J	.	8F\	-cta	.	.	8a\	-i	.	.	.	.
!	!	!	!	!	!	!	!	!	!	!LO:LB:g=original	!	!	!	!	!
=13	=13	=13	=13	=13	=13	=13	=13	=13	=13	=13	=13	=13	=13	=13	=13
*2\right	*	*	*	*	*	*	*ij	*	*	*	*	*	*	*	*
[<2E-X\	7	8dd\L]	.	8gg\L	.	8E-\	San-	4B-\	San-	4g\	San-	8dd\L]	.	2r	2r
.	6	16ee-\L	.	8b-\	.	8E-\	-cta	.	.	.	.	16ee-X\L	.	.	.
*	*	*	*	*	*	*	*Xij	*	*	*	*	*	*	*	*
.	.	16dd\JJ	.	.	.	.	.	.	.	.	.	16dd\JJ	.	.	.
.	.	8cc\L	.	8ee-X\	.	4.E-X\	De-	(8e-X\L	.	4g\	-cta	8cc\	-cta	.	.
.	.	8b-\J	.	8dd\J	.	.	.	8d\J)	.	.	.	8b-\	De-	.	.
8E-\L]	4_ 2	8a/L	.	4cc\	.	.	.	8c\	.	4.f\	De-	8a\	-i	4r	4r
16F\L	X	8f/J	.	.	.	16F\LL	.	8c\	-cta	.	.	8f/	Ge-	.	.
16E-\JJ	.	.	.	.	.	16E-\JJ	.	.	.	.	.	.	.	.	.
8D\L	6	[4b-/	.	8ff\L	.	8D\	.	8d\	De-	.	.	[<4b-\	.	8dd\L	8ff\L
!	!	!	!	!LO:SIC:v:t=custos cc	!	!	!	!	!	!	!	!	!	!	!
8E-\J	7 5	.	.	8gg\J	.	8E-\	-i	8d\	-i	8g\	-i	.	.	16cc\L	16ee-\L
!	!	!	!	!	!	!	!	!	!	!	!	!	!	!LO:SIC:v:t=custos f	!LO:SIC:v:t=custos cc
.	.	.	.	.	.	.	.	.	.	.	.	.	.	16b-\JJ	16dd\JJ
!	!	!	!	!LO:LB:g=original	!	!	!	!	!	!	!	!	!	!LO:LB:g=original	!LO:LB:g=original
=14	=14	=14	=14	=14	=14	=14	=14	=14	=14	=14	=14	=14	=14	=14	=14
!	!	!	!	!LO:TX:t=P:problem:mixed beam	!	!	!	!	!	!	!	!	!	!	!
4F\	43	4b-/]	.	8cc\L	.	4.F\	Ge-	4.c\	Ge-	4.f\	Ge-	8b-\L]	.	8f/L	8cc\L
.	.	.	.	8f/	.	.	.	.	.	.	.	16a\L	.	16f/L	8cc\J
.	.	.	.	.	.	.	.	.	.	.	.	16g\JJ	.	16f/JJ	.
4FF/	.	4at/	.	8ff\	.	.	.	.	.	.	.	8.at\	.	16f/LL	8.ccT\L
.	.	.	.	.	.	.	.	.	.	.	.	.	.	16f/	.
.	.	.	.	8ee-X\J	.	8FF/	-ni-	8c\	-ni-	8f\	-ni-	.	.	16f/	.
.	.	.	.	.	.	.	.	.	.	.	.	16a\	-ni-	16f/JJ	16cc\Jk
4BB-/	.	16b-\LL	.	16dd\LL	.	4BB-,</	-trix	4d,<\	-trix	4f,<\	-trix	4b-,<\	-trix	4d/	4b-\
.	.	16dd\	.	16ff\	.	.	.	.	.	.	.	.	.	.	.
.	.	16dd\	.	16ff\	.	.	.	.	.	.	.	.	.	.	.
.	.	16dd\JJ	.	16ff\JJ	.	.	.	.	.	.	.	.	.	.	.
8B-\L	.	16dd\LL	.	16ff\LL	.	8B-\	Nos-	8d\	nos-	8f\	nos-	8b-\	nos-	4r	4r
.	.	16dd\	.	16ff\	.	.	.	.	.	.	.	.	.	.	.
8A\J	2	16dd\	.	16ff\	.	8A\	-tras	8c\	-tras	8f\	-tras	8b-\	-tras	.	.
.	.	16dd\JJ	.	16ff\JJ	.	.	.	.	.	.	.	.	.	.	.
=15	=15	=15	=15	=15	=15	=15	=15	=15	=15	=15	=15	=15	=15	=15	=15
8G\L	-	8dd\L	.	8bb-\L	.	8G\	de-	8B-\	de-	8g\	de-	8b-\	de-	1rff	1r
8A\	.	8dd\	.	8bb-\	.	8A\	-pre-	8c\	-pre-	8g\	-pre-	8b-\	-pre-	.	.
8B-\	.	8dd\	.	8bb-\	.	8B-\	-ca-	8d\	-ca-	8g\	-ca-	8b-\	-ca-	.	.
8G\J	.	8dd\J	.	8bb-\J	.	8G\	-ti-	8B-\	-ti-	8g\	-ti-	8b-\	-ti-	.	.
*	*	*	*	*	*	*2\right	*	*	*	*	*	*2\right	*	*	*
!	!	!	!	!	!	!LO:SIC:v:t=custos B	!	!	!	!	!	!	!	!	!
2c\	6\	8ee-X\L	.	8aa\L	.	2c\	-o-	2e-X\	-o-	2e-X\	-o-	2at\	-o-	.	.
.	.	8ee-\	.	8aa\	.	.	.	.	.	.	.	.	.	.	.
.	.	8ee-\	.	8aa\	.	.	.	.	.	.	.	.	.	.	.
.	.	8ee-\J	.	8aa\J	.	.	.	.	.	.	.	.	.	.	.
!	!	!	!	!	!	!LO:LB:g=original	!	!	!	!	!	!	!	!	!
=16	=16	=16	=16	=16	=16	=16	=16	=16	=16	=16	=16	=16	=16	=16	=16
4B-\	.	16dd\LL	.	16bb-\LL	.	4B-,<\	-nes	4d,<\	nes	4f,<\	nes	4b-,<\	nes	16b-\LL	16dd\LL
.	.	16dd\	.	16b-\	.	.	.	.	.	.	.	.	.	16cc\	16ee-\
.	.	16b-\	.	16dd\	.	.	.	.	.	.	.	.	.	16b-\	16dd\
.	.	16cc\JJ	.	16ee-\JJ	.	.	.	.	.	.	.	.	.	16cc\JJ	16ee-\JJ
8B-\L	.	8dd\L	.	8ff\L	.	8B-\	de-	8d\	de-	8f\	de-	8b-\	de-	8dd\L	8ff\L
!	!	!	!	!	!	!	!	!LO:SIC:v:t=custos d	!	!	!	!LO:SIC:v:t=custos b	!	!	!
8F\J	.	8cc\J	.	8ff\J	.	8F\	-pre-	8c\	-pre-	8f\	-pre-	8a\	-pre-	8cc\J	8ff\J
!	!	!	!	!	!	!	!	!LO:LB:g=original	!	!	!	!LO:LB:g=original	!	!	!
=-	=-	=-	=-	=-	=-	=-	=-	=-	=-	=-	=-	=-	=-	=-	=-
4.B-\	.	16dd\LL	.	8ff\L	.	16B-\LL	-ca-	16d\LL	-ca-	4.fT\	-ca-	4.b-\	-ca-	8dd\L	8ff\L
.	.	16cc\	.	.	.	16A\	.	16c\	.	.	.	.	.	.	.
.	.	16dd\	.	8ff\	.	16B-\	.	16d\	.	.	.	.	.	8dd\	8ff\
.	.	16ee-\JJ	.	.	.	16c\JJ	.	16e-\JJ	.	.	.	.	.	.	.
.	.	8dd\L	.	8ff\	.	8B-\	.	8.d\	.	.	.	.	.	8dd\	8ff\
8A\	6	8cc\J	.	8aa\J	.	8A\	-ti-	.	.	8f\	-ti-	8f/	-ti-	8cc\J	8ff\J
.	.	.	.	.	.	.	.	16c\	-ti-	.	.	.	.	.	.
=17	=17	=17	=17	=17	=17	=17	=17	=17	=17	=17	=17	=17	=17	=17	=17
2G\	7	8dd\L	.	8bb-\L	.	2G\	-o-	2B-\	-o-	4f\	-o-	2g/	-o-	4dd\	4ff\
.	6	8dd\	.	8bb-\J	.	.	.	.	.	.	.	.	.	.	.
.	.	8gg\	.	8een\L	.	.	.	.	.	4en\	.	.	.	4b-\	4eeX\
.	.	8gg\J	.	8bb-X\J	.	.	.	.	.	.	.	.	.	.	.
4F\	.	4cc\	.	4aa,<\	.	4F\	-nes,	4c\	-nes	4f\	-nes	4a,<\	-nes	4cc\	4ff\
*clefC1	*	*	*	*	*	*	*	*	*	*	*	*	*	*	*
8a\L	.	4r	.	8a/L	.	4r	.	4r	.	4r	.	8a\	ne	4r	4r
8a\J	.	.	.	8a/J	.	.	.	.	.	.	.	8a\	des-	.	.
=18	=18	=18	=18	=18	=18	=18	=18	=18	=18	=18	=18	=18	=18	=18	=18
8dd\L	.	4r	.	8dd\L	.	1r	.	1r	.	4r	.	8dd\	-pi-	00r	00r
16dd\L	.	.	.	16dd\L	.	.	.	.	.	.	.	16dd\	-ci-	.	.
!LO:SIC:v:t=custos d	!	!	!	!	!	!	!	!	!	!	!	!	!	!	!
16dd\JJ	.	.	.	16dd\JJ	.	.	.	.	.	.	.	16dd\	-as	.	.
!LO:LB:g=original	!	!	!	!	!	!	!	!	!	!	!	!	!	!	!
=-	=-	=-	=-	=-	=-	=-	=-	=-	=-	=-	=-	=-	=-	=-	=-
*clefC3	*	*	*	*	*	*	*	*	*	*	*	*	*	*	*
!LO:TX:t=P:problem:jeden znak przykluczowy b-	!	!	!	!	!	!	!	!	!	!	!	!	!	!	!
8d\L	8	8d/L	.	8dd\L	.	.	.	.	.	8d\	ne	8dd\	in	.	.
8d\J	7	8d/J	.	8cc\J	.	.	.	.	.	8d\	des-	8cc\	ne-	.	.
8g\L	n_	8g/L	.	8bn/L	.	.	.	.	.	8g\	-pi-	8bn\	-ceſ-	.	.
16g\L	X	16g/L	.	8b/J	.	.	.	.	.	16g\	-ci-	8b\	-si-	.	.
16g\JJ	.	16g/JJ	.	.	.	.	.	.	.	16g\	-as	.	.	.	.
!	!	!	!	!	!	!	!	!	!	!LO:LB:g=original	!	!	!	!	!
=-	=-	=-	=-	=-	=-	=-	=-	=-	=-	=-	=-	=-	=-	=-	=-
8g\L	.	8g/L	.	8g/L	.	.	.	.	.	8g\	in	8g\	-ta-	.	.
!	!	!LO:SIC:v:t=custos en	!	!	!	!	!	!	!	!	!	!	!	!	!
8f\J	.	8f/J	.	16a/L	.	.	.	.	.	8f\	ne-	16a\	-ti-	.	.
.	.	.	.	16bn/JJ	.	.	.	.	.	.	.	16bn\	-bus	.	.
!	!	!LO:LB:g=original	!	!	!	!	!	!	!	!	!	!	!	!	!
=19	=19	=19	=19	=19	=19	=19	=19	=19	=19	=19	=19	=19	=19	=19	=19
8en\L	6	8en/L	.	8cc\L	.	2r	.	4r	.	8en\	-ceſ-	4.cc\	No-	.	.
8e\J	.	8e/J	.	8cc\	.	.	.	.	.	8e\	-si-	.	.	.	.
*clefC4	*	*	*	*	*	*	*	*	*	*	*	*	*	*	*
8A\L	.	8c/L	.	8cc\	.	.	.	8A\	ne	8c\	-ta-	.	.	.	.
!	!	!	!	!LO:SIC:v:t=custos a	!	!	!	!	!	!	!	!	!	!	!
8A\J	.	16d/L	.	8bn\J	.	.	.	8A\	des-	16d\	-ti-	8bn\	.	.	.
.	.	16en/JJ	.	.	.	.	.	.	.	16en\	-bus	.	.	.	.
!	!	!	!	!LO:LB:g=original	!	!	!	!	!	!	!	!	!	!	!
=-	=-	=-	=-	=-	=-	=-	=-	=-	=-	=-	=-	=-	=-	=-	=-
!	!	!LO:TX:t=P:problem:mixed beam	!	!LO:TX:t=P:problem:mixed beam	!	!	!	!	!	!	!	!	!	!	!
8d\L	-	8f/L	.	8a/L	.	4r	.	8d\	-pi-	(4.f\	no-	4a,<\	-stris	.	.
16d\L	.	8ff\	.	8aa\	.	.	.	16d\	-ci-	.	.	.	.	.	.
16d\JJ	.	.	.	.	.	.	.	16d\	-as	.	.	.	.	.	.
*clefF4	*	*	*	*	*	*	*	*	*	*	*	*	*	*	*
!LO:TX:t=P:problem:jeden znak przykluczowy b-	!	!	!	!	!	!	!	!	!	!	!	!	!	!	!
8D\L	8	8ff\	.	8aa\	.	8D/	nè	8d\	in	.	.	8a\	nè	.	.
8D\J	7	8een\J	.	8aa\J	.	8D/	des-	8c\	ne-	8e\)	.	8a\	des-	.	.
=20	=20	=20	=20	=20	=20	=20	=20	=20	=20	=20	=20	=20	=20	=20	=20
8G\L	n_	8dd\L	.	8bbn\L	.	8G\	-pi-	8Bn\	-ceſ-	4d,<\	-stris	8bn\	-pi-	.	.
16G\L	X	8dd\	.	16bb\L	.	16G\	-ci-	8B\	-si-	.	.	16b\	-ci-	.	.
16G\JJ	.	.	.	16bb\JJ	.	16G,<\	-as	.	.	.	.	16b,<\	-as	.	.
8G\L	.	8dd\	.	8bb\L	.	8G\	in	8G\	-ta-	8d\	in	8b,<\	in	.	.
!	!	!	!	!	!	!	!	!	!	!	!	!LO:SIC:v:t=custos g	!	!	!
8F\J	.	8dd\J	.	8aa\J	.	8F\	ne-	16A\	-ti-	8d\	Ne-	8a\	ne-	.	.
.	.	.	.	.	.	.	.	16Bn,<\	-bus	.	.	.	.	.	.
!	!	!	!	!	!	!	!	!	!	!	!	!LO:LB:g=original	!	!	!
=-	=-	=-	=-	=-	=-	=-	=-	=-	=-	=-	=-	=-	=-	=-	=-
8En\L	6	8een\L	.	8gg\L	.	8En\	-ceſ-	8c\	in	4.en\	-ceſ-	8g/	-ceſ-	.	.
8E\J	.	8cc\	.	8gg\J	.	8E\	-si-	8c\	Ne-	.	.	8g/	-si-	.	.
8C\L	.	8cc\	.	8een\L	.	8C/	-ta-	8c\	-ceſ-	.	.	8en/	-ta-	.	.
!	!	!	!	!	!	!	!	!LO:SIC:v:t=custos A	!	!	!	!	!	!	!
16D\L	.	8bn\J	.	16ff\L	.	16D/	-ti-	8Bn\	-si-	8d\	-si-	16f/	-ti-	.	.
16En\JJ	.	.	.	16gg\JJ	.	16En/	-bus	.	.	.	.	16g/	-bus	.	.
!	!	!	!	!	!	!	!	!LO:LB:g=original	!	!	!	!	!	!	!
=21	=21	=21	=21	=21	=21	=21	=21	=21	=21	=21	=21	=21	=21	=21	=21
4.F\	5	16a\LL	.	16aa\LL	.	(4.F\	no-	8A\	-ta-	8c\	-ta-	4.a\	no-	.	.
.	6	16a\	.	16cc\	.	.	.	.	.	.	.	.	.	.	.
.	.	16bn\	.	16dd\	.	.	.	16Bn\	-ti-	16d\	-ti-	.	.	.	.
.	.	16cc#X\JJ	.	16een\JJ	.	.	.	16c#X\	-bus	16e-\	-bus	.	.	.	.
.	.	4.dd\	.	8ff\L	.	.	.	4.d\	No-	4f\	No-	.	.	.	.
!	!	!	!	!	!	!LO:SIC:v:t=custos A	!	!	!	!	!	!	!	!	!
8G\	7	.	.	8bb-X\J	.	8G\)	.	.	.	.	.	8b-X\	.	.	.
!	!	!	!	!	!	!LO:LB:g=original	!	!	!	!	!	!	!	!	!
=-	=-	=-	=-	=-	=-	=-	=-	=-	=-	=-	=-	=-	=-	=-	=-
4A\	4	.	.	8een\L	.	(4A\	.	.	.	2en\	.	2at\	.	.	.
!	!	!LO:TX:a:t=P:problem:# above	!	!	!	!	!	!	!	!	!	!	!	!	!
.	#3r	16cc#X\LL	.	8a\	.	.	.	16c#X\LL	.	.	.	.	.	.	.
.	.	16bn\JJ	.	.	.	.	.	16Bn\JJ	.	.	.	.	.	.	.
4AA/	.	8.cc#X\L	.	8aa\	.	4AA/)	.	4c#X\	.	.	.	.	.	.	.
.	.	.	.	8gg\J	.	.	.	.	.	.	.	.	.	.	.
.	.	16cc#\Jk	.	.	.	.	.	.	.	.	.	.	.	.	.
=22	=22	=22	=22	=22	=22	=22	=22	=22	=22	=22	=22	=22	=22	=22	=22
!LO:TX:a:t=S.	!	!	!	!	!	!	!	!	!	!	!	!	!	!	!
8DD#/L	.	8dd\	.	8ff#X\	.	4D/	-stris	8d\	-stris.	8f#X\	-stris.	8a,<\	-stris.	00r	00r
!	!	!	!	!	!	!	!	!	!	!	!	!LO:TX:a:t=Solo	!	!	!
8D/	.	8r	.	8r	.	.	.	8r	.	8r	.	8a\	Sed	.	.
8C#X/	6	4r	.	8r	.	4r	.	4r	.	4r	.	8a\	à	.	.
!LO:SIC:v:t=custos D	!	!	!	!	!	!	!	!	!	!	!	!	!	!	!
8AA/J	.	.	.	8cc#X\	.	.	.	.	.	.	.	8a\	pe-	.	.
!LO:LB:g=original	!	!	!	!	!	!	!	!	!	!	!	!	!	!	!
=-	=-	=-	=-	=-	=-	=-	=-	=-	=-	=-	=-	=-	=-	=-	=-
!LO:TX:t=P:problem:dwa znaki przykluczowe b-e-	!	!	!	!	!	!	!	!	!	!	!	!	!	!	!
4D\	.	2r	.	8dd\L	.	2r	.	2r	.	2r	.	16f/	-ri-	.	.
.	.	.	.	.	.	.	.	.	.	.	.	16en/	-cu-	.	.
.	.	.	.	16een\L	.	.	.	.	.	.	.	8d/	-lis	.	.
.	.	.	.	16ff#\JJ	.	.	.	.	.	.	.	.	.	.	.
8r	.	.	.	8ff#\L	.	.	.	.	.	.	.	8dd\	à	.	.
8En\	6 -5r	.	.	8gg\J	.	.	.	.	.	.	.	(16cc\LL	pe-	.	.
.	.	.	.	.	.	.	.	.	.	.	.	16b-X\JJ)	.	.	.
=23	=23	=23	=23	=23	=23	=23	=23	=23	=23	=23	=23	=23	=23	=23	=23
4F\	.	8r	.	8ccn\	.	00r	.	00r	.	00r	.	8a\	-ri-	.	.
.	.	4ff\	.	8r	.	.	.	.	.	.	.	16g/	-cu-	.	.
.	.	.	.	.	.	.	.	.	.	.	.	16f/	-lis	.	.
8G\L	7	.	.	4r	.	.	.	.	.	.	.	4b-XT\	cun-	.	.
8C\J	7 n	8een\	.	.	.	.	.	.	.	.	.	.	.	.	.
!LO:TX:t=P:problem:mixed beam	!	!	!	!	!	!	!	!	!	!	!	!	!	!	!
8F\L	.	8ff\L	.	8r	.	.	.	.	.	.	.	4a\	-ctis	.	.
8En\	6	8gg\J	.	4ccc\	.	.	.	.	.	.	.	.	.	.	.
8D\	7	16ff\LL	.	.	.	.	.	.	.	.	.	4r	.	.	.
.	.	16gg\	.	.	.	.	.	.	.	.	.	.	.	.	.
8GG/J	7	16ff\	.	8bbn\	.	.	.	.	.	.	.	.	.	.	.
.	.	16gg\JJ	.	.	.	.	.	.	.	.	.	.	.	.	.
=24	=24	=24	=24	=24	=24	=24	=24	=24	=24	=24	=24	=24	=24	=24	=24
!	!	!	!	!	!	!	!	!	!	!	!	!LO:SIC:v:t=custos g	!	!	!
!	!	!	!	!	!	!	!	!	!	!	!	!LO:TX:a:t=1.	!	!	!
8C/	.	16een\LL	.	16ccc\LL	.	.	.	.	.	.	.	1r	.	.	.
.	.	16ee\	.	16gg\	.	.	.	.	.	.	.	.	.	.	.
4c\	3	16dd\	.	16ff\	.	.	.	.	.	.	.	.	.	.	.
.	2	16cc\JJ	.	16een\JJ	.	.	.	.	.	.	.	.	.	.	.
.	.	16dd\LL	.	16ff\LL	.	.	.	.	.	.	.	.	.	.	.
!	!	!LO:TX:a:t=P:problem:♮ above	!	!	!	!	!	!	!	!	!	!	!	!	!
.	.	16een\	.	16gg\	.	.	.	.	.	.	.	.	.	.	.
8Bn\	6 5	16dd\	.	16ff\	.	.	.	.	.	.	.	.	.	.	.
!	!	!	!	!LO:SIC:v:t=custos een	!	!	!	!	!	!	!	!	!	!	!
.	.	16ee\JJ	.	16gg\JJ	.	.	.	.	.	.	.	.	.	.	.
!	!	!LO:LB:g=original	!	!LO:LB:g=original	!	!	!	!	!	!	!	!	!	!	!
=-	=-	=-	=-	=-	=-	=-	=-	=-	=-	=-	=-	=-	=-	=-	=-
!	!	!LO:TX:t=P:problem:mixed beam	!	!LO:TX:t=P:problem:mixed beam	!	!	!	!	!	!	!	!	!	!	!
8c\	.	16cc\LL	.	16een\LL	.	.	.	.	.	.	.	.	.	.	.
.	.	16en/	.	16g/	.	.	.	.	.	.	.	.	.	.	.
4C/	3	16d/	.	16f/	.	.	.	.	.	.	.	.	.	.	.
.	2	16c/JJ	.	16en/JJ	.	.	.	.	.	.	.	.	.	.	.
.	.	16d/LL	.	16f/LL	.	.	.	.	.	.	.	.	.	.	.
.	.	16e/	.	16g/	.	.	.	.	.	.	.	.	.	.	.
8BBn/	6 5	16d/	.	16f/	.	.	.	.	.	.	.	.	.	.	.
.	.	16e/JJ	.	16g/JJ	.	.	.	.	.	.	.	.	.	.	.
!	!	!	!	!	!	!	!	!	!	!	!	!LO:LB:g=original	!	!	!
=25	=25	=25	=25	=25	=25	=25	=25	=25	=25	=25	=25	=25	=25	=25	=25
4C/	.	4c/	.	4en/	.	.	.	.	.	.	.	8r	.	.	.
.	.	.	.	.	.	.	.	.	.	.	.	16g\	à	.	.
.	.	.	.	.	.	.	.	.	.	.	.	16g\	pe-	.	.
8r	.	4r	.	8r	.	.	.	.	.	.	.	8ee-X\	-ri-	.	.
8GG/	n	.	.	16bn\LL	.	.	.	.	.	.	.	16dd\	-cu-	.	.
.	.	.	.	16b\JJ	.	.	.	.	.	.	.	16dd\	-lis	.	.
8E-X\L	6	2r	.	8gg\L	.	.	.	.	.	.	.	8cc\	cun-	.	.
8D\	6|	.	.	8ff\J	.	.	.	.	.	.	.	8bn,<\	-ctis	.	.
8C\	-	.	.	8ee-X\L	.	.	.	.	.	.	.	8cc\	à	.	.
8A-X\J	6	.	.	16cc\L	.	.	.	.	.	.	.	8f/	pe-	.	.
.	.	.	.	16dd\JJ	.	.	.	.	.	.	.	.	.	.	.
=26	=26	=26	=26	=26	=26	=26	=26	=26	=26	=26	=26	=26	=26	=26	=26
4G\	.	4r	.	16bn\LL	.	.	.	.	.	.	.	8g/	-ri-	00rdd	00rdd
.	.	.	.	16dd\	.	.	.	.	.	.	.	.	.	.	.
.	.	.	.	16ee-X\	.	.	.	.	.	.	.	16g/	-cu-	.	.
.	.	.	.	16ff\JJ	.	.	.	.	.	.	.	16g/	-lis	.	.
4r	.	16r	.	8gg\L	.	.	.	.	.	.	.	4r	.	.	.
.	.	16g/LL	.	.	.	.	.	.	.	.	.	.	.	.	.
.	.	16a/	.	8ff\J	.	.	.	.	.	.	.	.	.	.	.
.	.	16bn/JJ	.	.	.	.	.	.	.	.	.	.	.	.	.
2r	.	8cc\L	.	8ee-X\L	.	.	.	.	.	.	.	2r	.	.	.
.	.	8bn\	.	8dd\J	.	.	.	.	.	.	.	.	.	.	.
.	.	8cc\	.	8ee-X\L	.	.	.	.	.	.	.	.	.	.	.
.	.	8a-X\J	.	16cc\L	.	.	.	.	.	.	.	.	.	.	.
.	.	.	.	16dd\JJ	.	.	.	.	.	.	.	.	.	.	.
=27	=27	=27	=27	=27	=27	=27	=27	=27	=27	=27	=27	=27	=27	=27	=27
16r	.	16g\LL	.	16bn\LL	.	00r	.	00r	.	0rB	.	1r	.	.	.
16G\LL	n	16bn\	.	16gg\	.	.	.	.	.	.	.	.	.	.	.
16A\	.	16cc\	.	16gg\	.	.	.	.	.	.	.	.	.	.	.
16Bn\JJ	.	16dd\JJ	.	16gg\JJ	.	.	.	.	.	.	.	.	.	.	.
8c\L	-	8ee-X\L	.	16gg\LL	.	.	.	.	.	.	.	.	.	.	.
.	.	.	.	16gg\	.	.	.	.	.	.	.	.	.	.	.
!LO:SIC:v:t=custos c	!	!	!	!	!	!	!	!	!	!	!	!	!	!	!
8Bn\J	6	8dd\J	.	16gg\	.	.	.	.	.	.	.	.	.	.	.
.	.	.	.	16gg\JJ	.	.	.	.	.	.	.	.	.	.	.
!LO:LB:g=original	!	!	!	!	!	!	!	!	!	!	!	!	!	!	!
=-	=-	=-	=-	=-	=-	=-	=-	=-	=-	=-	=-	=-	=-	=-	=-
!LO:TX:t=P:problem:mixed beam	!	!	!	!LO:TX:t=P:problem:mixed beam	!	!	!	!	!	!	!	!	!	!	!
8c\L	-	8ee-\L	.	16gg\LL	.	.	.	.	.	.	.	.	.	.	.
.	.	.	.	16a-X/	.	.	.	.	.	.	.	.	.	.	.
8F\	-	8ff\J	.	16a-/	.	.	.	.	.	.	.	.	.	.	.
.	.	.	.	16a-/JJ	.	.	.	.	.	.	.	.	.	.	.
8G\	-6r	8ee-X\L	.	8g/L	.	.	.	.	.	.	.	.	.	.	.
8GG/J	5	16dd\L	.	8bn/J	.	.	.	.	.	.	.	.	.	.	.
.	.	16cc\JJ	.	.	.	.	.	.	.	.	.	.	.	.	.
=28	=28	=28	=28	=28	=28	=28	=28	=28	=28	=28	=28	=28	=28	=28	=28
!LO:TX:a:t=P:problem:znak cyfrowania nad nutą	!	!	!	!	!	!	!	!	!	!	!	!	!	!	!
4C/	-	8cc\	.	8cc\	.	.	.	.	.	.	.	8r	.	.	.
.	.	8r	.	8r	.	.	.	.	.	.	.	16ee-X\	li-	.	.
.	.	.	.	.	.	.	.	.	.	.	.	16ee-\	-be-	.	.
4r	.	8r	.	8r	.	.	.	.	.	.	.	8ee-\	-ra	.	.
.	.	16g/LL	.	16e-X/LL	.	.	.	.	.	.	.	8ee-\	nos	.	.
.	.	16a-X/JJ	.	16f/JJ	.	.	.	.	.	.	.	.	.	.	.
2r	.	8b-\L	.	8g/L	.	.	.	.	.	.	.	2ee-T\	sem-	.	.
.	.	8cc\	.	8a-X/	.	.	.	.	.	.	.	.	.	.	.
.	.	8b-\	.	8g/	.	.	.	.	.	.	.	.	.	.	.
!	!	!	!	!LO:SIC:v:t=custos e-	!	!	!	!	!	!	!	!	!	!	!
.	.	8cc\J	.	8a-/J	.	.	.	.	.	.	.	.	.	.	.
!	!	!	!	!LO:LB:g=original	!	!	!	!	!	!	!	!	!	!	!
=29	=29	=29	=29	=29	=29	=29	=29	=29	=29	=29	=29	=29	=29	=29	=29
4r	.	4g/	.	4e-X/	.	.	.	.	.	8r	.	8ee-,<\	-per	.	.
!	!	!	!	!	!	!	!	!	!	!LO:TX:a:t=a2.	!	!	!	!	!
.	.	.	.	.	.	.	.	.	.	16e-\	li-	16g\	li-	.	.
.	.	.	.	.	.	.	.	.	.	16f\	-be-	16a-X\	-be-	.	.
8r	.	4r	.	4r	.	.	.	.	.	8g\	-ra	8b-\	-ra	.	.
!	!	!	!	!	!	!	!	!	!	!	!	!LO:SIC:v:t=custos cc	!	!	!
8E-X\	.	.	.	.	.	.	.	.	.	8g\	nos	8e-/	nos	.	.
!	!	!	!	!	!	!	!	!	!	!LO:LB:g=original	!	!LO:LB:g=original	!	!	!
=-	=-	=-	=-	=-	=-	=-	=-	=-	=-	=-	=-	=-	=-	=-	=-
8A-X\L	.	2r	.	2r	.	.	.	.	.	8a-X\	sem-	8cc\	sem-	.	.
8A-\	.	.	.	.	.	.	.	.	.	8a-\	-per	8cc\	-per	.	.
8B-\	6 8	.	.	.	.	.	.	.	.	8g\	Vir-	8b-\	Vir-	.	.
8B-\J	5 7	.	.	.	.	.	.	.	.	8f\	-go	8a-X\	-go	.	.
=30	=30	=30	=30	=30	=30	=30	=30	=30	=30	=30	=30	=30	=30	=30	=30
!	!	!LO:SIC:v:t=custos ee-	!	!	!	!	!	!	!	!	!	!	!	!	!
8c\L	5	0r	.	0r	.	.	.	.	.	(16e-X\LL	glo-	(16g\LL	glo-	00rdd	00rdd
.	.	.	.	.	.	.	.	.	.	16f\JJ)	.	16a-X\JJ)	.	.	.
16B-\L	.	.	.	.	.	.	.	.	.	(16e-\LL	-ri-	(16g\LL	-ri-	.	.
16A-X\JJ	.	.	.	.	.	.	.	.	.	16f\JJ)	.	16a-\JJ)	.	.	.
16G\LL	.	.	.	.	.	.	.	.	.	8g\L	-o-	8bny\L	-o-	.	.
16A-X\	.	.	.	.	.	.	.	.	.	.	.	.	.	.	.
16G\	.	.	.	.	.	.	.	.	.	16f\L	.	16a-X\L	.	.	.
16A-\JJ	.	.	.	.	.	.	.	.	.	16e-\JJ	.	16g\JJ	.	.	.
8B-\L	.	.	.	.	.	.	.	.	.	8d\	-sa	8f,</	-sa	.	.
16A-X\L	.	.	.	.	.	.	.	.	.	8r	.	16f/LL	et	.	.
16G\JJ	.	.	.	.	.	.	.	.	.	.	.	16g/JJ	.	.	.
8F\L	-	.	.	.	.	.	.	.	.	8r	.	[<4a-X\	be-	.	.
8E-X\J	.	.	.	.	.	.	.	.	.	8c/	et	.	.	.	.
=31	=31	=31	=31	=31	=31	=31	=31	=31	=31	=31	=31	=31	=31	=31	=31
8D\L	-5r	.	.	.	.	1r	.	1r	.	(8f\L	be-	8a-\L]	.	.	.
8C\J	.	.	.	.	.	.	.	.	.	8e-X\J)	.	16b-\L	.	.	.
.	.	.	.	.	.	.	.	.	.	.	.	16cc\JJ	.	.	.
16D/LL	6	.	.	.	.	.	.	.	.	16f\LL	.	8b-\	.	.	.
16BB-/	.	.	.	.	.	.	.	.	.	16d\	.	.	.	.	.
16C/	-6r	.	.	.	.	.	.	.	.	16e-X\	.	8a-X\	-ne-	.	.
16D/JJ	5	.	.	.	.	.	.	.	.	16f\JJ	.	.	.	.	.
!LO:TX:t=P:problem:mixed beam	!	!	!	!	!	!	!	!	!	!	!	!	!	!	!
8E-X\L	.	.	.	.	.	.	.	.	.	8B-/	.	8g/L	-di	.	.
8A-X\	6 5	.	.	.	.	.	.	.	.	8e-X\	-ne-	8f/J	.	.	.
8B-\	4	.	.	.	.	.	.	.	.	8e-\L	-di-	4fT/	.	.	.
8BB-/J	3	.	.	.	.	.	.	.	.	8d\J	.	.	.	.	.
!	!	!LO:LB:g=original	!	!	!	!	!	!	!	!	!	!	!	!	!
=32	=32	=32	=32	=32	=32	=32	=32	=32	=32	=32	=32	=32	=32	=32	=32
!LO:TX:a:t=T.	!	!	!	!	!	!LO:TX:a:t=T.	!	!	!	!	!	!	!	!	!
8E-,<\L	.	16ee-\LL	.	16gg\LL	.	8r	.	8r	.	8e-,<\	-cta	8e-X,</	-cta	.	.
.	.	16ff\	.	16aa-X\	.	.	.	.	.	.	.	.	.	.	.
16E-\L	.	16gg\	.	16bb-\	.	16E-\	li-	16e-X\	li-	16g\	li-	16b-\	li-	.	.
16F\JJ	.	16ff\JJ	.	16aa-\JJ	.	16F\	-be-	16d\	-be-	16a-X\	-be-	16a-X\	-be-	.	.
8G\L	6	8ee-\L	.	8gg\L	.	8G\	-ra	8e-\	-ra	8g\	-ra	8b-\	-ra	.	.
!LO:SIC:v:t=custos B	!	!	!	!	!	!	!	!	!	!	!	!	!	!	!
8A-X\J	7 -5r	[8ee-\J	.	8gg\J	.	8A-X\	Nos	8e-\	nos	8g\	nos	8cc\	nos	.	.
!LO:LB:g=original	!	!	!	!	!	!	!	!	!	!	!	!	!	!	!
=-	=-	=-	=-	=-	=-	=-	=-	=-	=-	=-	=-	=-	=-	=-	=-
!LO:TX:t=P:problem:znika es przykluczowe	!	!	!	!	!	!	!	!	!	!	!	!	!	!	!
4B-\	.	16ee-\LL]	.	8ff\L	.	8B-\	sem-	16e-X\LL	sem-	8f\	sem-	8b-\	sem-	.	.
.	.	16dd\J	.	.	.	.	.	16d\JJ	.	.	.	.	.	.	.
.	.	8dd\J	.	8ff\	.	8B-\	-per	8d\	-per	8f\	-per	8b-,<\	-per	.	.
4G\	-6r	8gg\L	.	8bb-\	.	8G\	Vir-	8e-X\	Vir-	8g\	Vir-	8b-\	Vir-	.	.
!	!	!	!	!	!	!	!	!	!	!LO:SIC:v:t=custos e-	!	!LO:SIC:v:t=custos a-	!	!	!
.	.	8gg\J	.	8bb-\J	.	8G\	-go	8e-\	-go	8g\	-go	8b-\	-go	.	.
!	!	!	!	!	!	!	!	!	!	!LO:LB:g=original	!	!LO:PB:g=original	!	!	!
=33	=33	=33	=33	=33	=33	=33	=33	=33	=33	=33	=33	=33	=33	=33	=33
8A-X\L	.	8cc\L	.	8ee-X\L	.	8A-X\	glo-	16c\LL	glo-	16e-\LL	glo-	8a-X\	glo-	.	.
.	.	.	.	.	.	.	.	16d\JJ	.	16f\JJ	.	.	.	.	.
8G\	6	8b-\	.	8ee-\	.	8G\	-ri-	8e-\	-ri-	8g\	-ri-	8b-\	-ri-	.	.
8F\	7	8cc\	.	8aa-X\	.	(8F\L	-o-	(8e-\L	-o-	4a-X\	-o-	8cc\L	-o-	.	.
8BB-\J	7	8dd\J	.	8aa-\J	.	8BB-\J)	.	8d\J)	.	.	.	8b-\J	.	.	.
!	!	!	!	!	!	!	!	!LO:SIC:v:t=custos e	!	!	!	!	!	!	!
4E-\	.	8ee-X\L	.	8gg\L	.	4E-\	-sa	4e-,<\	-sa	4g,<\	-sa	4b-,<\	-sa	.	.
.	.	8ee-\	.	8gg\J	.	.	.	.	.	.	.	.	.	.	.
!	!	!	!	!	!	!	!	!LO:LB:g=original	!	!	!	!	!	!	!
=-	=-	=-	=-	=-	=-	=-	=-	=-	=-	=-	=-	=-	=-	=-	=-
4C/	-6r	8ee-\	.	[<4aa-X\	.	4C/	et	4e-\	et	[<4a-X\	et	4cc\	et	.	.
.	.	8ee-\J	.	.	.	.	.	.	.	.	.	.	.	.	.
=34	=34	=34	=34	=34	=34	=34	=34	=34	=34	=34	=34	=34	=34	=34	=34
4D\	6 5	8ff\L	.	8aa-\L]	.	4D\	be-	8f\	be-	4a-\]	.	4b-\	be-	00r	00r
.	.	8ff\	.	8aa-y\	.	.	.	8f\	-ne-	.	.	.	.	.	.
4E-X\	.	8b-\	.	8gg\	.	4E-X\	-ne-	2e-\	-di-	8g\	be-	4b-\	-ne-	.	.
.	.	8b-\J	.	8gg\J	.	.	.	.	.	8g\	-ne-	.	.	.	.
!	!	!LO:TX:t=P:problem:mixed beam	!	!LO:TX:t=P:problem:mixed beam	!	!	!	!	!	!	!	!	!	!	!
4AA-X/	6 5	8cc\L	.	8ff\L	.	4AA-X/	-di-	.	.	2f\	-di-	(4cc\	-di-	.	.
.	.	8cc\	.	8a-X/	.	.	.	.	.	.	.	.	.	.	.
4BB-/	.	8d/	.	8f/	.	4BB-/	.	4d\	.	.	.	4b-\)	.	.	.
.	.	8b-/J	.	8dd/J	.	.	.	.	.	.	.	.	.	.	.
=35	=35	=35	=35	=35	=35	=35	=35	=35	=35	=35	=35	=35	=35	=35	=35
4E-X\	.	8g/	.	16e-/LL	.	4E-\	-cta.	4e-\	-cta.	4g\	-cta.	4b-\	-cta	.	.
.	.	.	.	16g/	.	.	.	.	.	.	.	.	.	.	.
.	.	8r	.	16e-/	.	.	.	.	.	.	.	.	.	.	.
.	.	.	.	16f/JJ	.	.	.	.	.	.	.	.	.	.	.
4r	.	4r	.	8g/L	.	4r	.	4r	.	4r	.	4r	.	.	.
.	.	.	.	8a-X/J	.	.	.	.	.	.	.	.	.	.	.
2r	.	16e-X/LL	.	16g/LL	.	2r	.	2r	.	2r	.	2r	.	.	.
.	.	16g/	.	16b-/	.	.	.	.	.	.	.	.	.	.	.
.	.	16e-/	.	16g/	.	.	.	.	.	.	.	.	.	.	.
.	.	16f/JJ	.	16a-X/JJ	.	.	.	.	.	.	.	.	.	.	.
.	.	8g/L	.	8b-\L	.	.	.	.	.	.	.	.	.	.	.
.	.	8a-X/J	.	8cc\J	.	.	.	.	.	.	.	.	.	.	.
!	!	!	!	!	!	!LO:LB:g=original	!	!	!	!	!	!	!	!	!
=36	=36	=36	=36	=36	=36	=36	=36	=36	=36	=36	=36	=36	=36	=36	=36
16E-\LL	.	16g\LL	.	16b-\LL	.	00r	.	00r	.	00r	.	0r	.	.	.
16G\	.	16b-\	.	16ee-X\	.	.	.	.	.	.	.	.	.	.	.
16E-\	.	16g\	.	16ee-\	.	.	.	.	.	.	.	.	.	.	.
16F\JJ	.	16a-X\JJ	.	16dd\JJ	.	.	.	.	.	.	.	.	.	.	.
8G\L	6	8b-\L	.	16ee-\LL	.	.	.	.	.	.	.	.	.	.	.
.	.	.	.	16b-\	.	.	.	.	.	.	.	.	.	.	.
8A-X\J	7	8cc\J	.	16aa-X\	.	.	.	.	.	.	.	.	.	.	.
.	.	.	.	16gg\JJ	.	.	.	.	.	.	.	.	.	.	.
!	!	!	!	!LO:LB:g=original	!	!	!	!	!	!	!	!	!	!	!
=-	=-	=-	=-	=-	=-	=-	=-	=-	=-	=-	=-	=-	=-	=-	=-
8B-\L	.	16dd\LL	.	16ff\LL	.	.	.	.	.	.	.	.	.	.	.
.	.	16ff\	.	16dd\	.	.	.	.	.	.	.	.	.	.	.
8G\	6	16gg\	.	16b-\	.	.	.	.	.	.	.	.	.	.	.
.	.	16gg\JJ	.	16bb-\JJ	.	.	.	.	.	.	.	.	.	.	.
8A-X\	6	16ff\LL	.	16aa-X\LL	.	.	.	.	.	.	.	.	.	.	.
.	.	16ee-\	.	16gg\	.	.	.	.	.	.	.	.	.	.	.
8B-\J	.	16ff\	.	16aa-\	.	.	.	.	.	.	.	.	.	.	.
!	!	!LO:SIC:v:t=custos ee-	!	!	!	!	!	!	!	!	!	!	!	!	!
.	.	16dd\JJ	.	16ff\JJ	.	.	.	.	.	.	.	.	.	.	.
!	!	!LO:LB:g=original	!	!	!	!	!	!	!	!	!	!	!	!	!
=37	=37	=37	=37	=37	=37	=37	=37	=37	=37	=37	=37	=37	=37	=37	=37
!	!	!LO:TX:t=P:problem:mixed beam	!	!LO:TX:t=P:problem:mixed beam	!	!	!	!	!	!	!	!	!	!	!
4E-X\	.	16ee-\LL	.	16gg\LL	.	.	.	.	.	.	.	.	.	.	.
.	.	16g/	.	16b-\	.	.	.	.	.	.	.	.	.	.	.
.	.	16f/	.	16a-X\	.	.	.	.	.	.	.	.	.	.	.
.	.	16e-/JJ	.	16g\JJ	.	.	.	.	.	.	.	.	.	.	.
4r	.	16a-X/LL	.	16cc/LL	.	.	.	.	.	.	.	.	.	.	.
.	.	16f/	.	16a-X/	.	.	.	.	.	.	.	.	.	.	.
.	.	16e-X/	.	16g/	.	.	.	.	.	.	.	.	.	.	.
.	.	16d/JJ	.	16f/JJ	.	.	.	.	.	.	.	.	.	.	.
!LO:TX:t=P:problem:mixed beam	!	!	!	!	!	!	!	!	!	!	!	!	!	!	!
8G\L	6	16e-X/LL	.	16b-/LL	.	.	.	.	.	.	.	.	.	.	.
.	.	16b-/	.	16g/	.	.	.	.	.	.	.	.	.	.	.
8A-X\	6 5	16a-X/	.	16f/	.	.	.	.	.	.	.	.	.	.	.
.	.	16g/JJ	.	16e-/JJ	.	.	.	.	.	.	.	.	.	.	.
!	!	!	!	!LO:TX:t=P:problem:mixed beam	!	!	!	!	!	!	!	!	!	!	!
8B-\	.	8f/L	.	8d\L	.	.	.	.	.	.	.	.	.	.	.
8BB-/J	.	8b-/J	.	8dd\J	.	.	.	.	.	.	.	.	.	.	.
=38	=38	=38	=38	=38	=38	=38	=38	=38	=38	=38	=38	=38	=38	=38	=38
!	!	!	!	!LO:TX:t=P:problem:mixed beam	!	!	!	!	!	!	!	!	!	!	!
4E-\	.	8g\L	.	8ee-X\L	.	.	.	.	.	.	.	1r	.	00r	00r
.	.	8ee-X\J	.	8gg\	.	.	.	.	.	.	.	.	.	.	.
8r	.	16g/LL	.	8e-/	.	.	.	.	.	.	.	.	.	.	.
.	.	16a/	.	.	.	.	.	.	.	.	.	.	.	.	.
!LO:SIC:v:t=custos B	!	!	!	!	!	!	!	!	!	!	!	!	!	!	!
!LO:TX:b:t=Vertat[ur]	!	!	!	!	!	!	!	!	!	!	!	!	!	!	!
8E-\	.	16b-/	.	8gg\J	.	.	.	.	.	.	.	.	.	.	.
.	.	16cc/JJ	.	.	.	.	.	.	.	.	.	.	.	.	.
!LO:PB:g=original	!	!	!	!	!	!	!	!	!	!	!	!	!	!	!
=-	=-	=-	=-	=-	=-	=-	=-	=-	=-	=-	=-	=-	=-	=-	=-
4B-\	.	16dd\LL	.	16ff\LL	.	.	.	.	.	.	.	.	.	.	.
.	.	16dd\	.	16b-\	.	.	.	.	.	.	.	.	.	.	.
.	.	16ee-X\	.	16cc\	.	.	.	.	.	.	.	.	.	.	.
.	.	16dd\JJ	.	16dd\JJ	.	.	.	.	.	.	.	.	.	.	.
8r	.	16cc\LL	.	16ee-X\LL	.	.	.	.	.	.	.	.	.	.	.
.	.	16dd\	.	16ff\	.	.	.	.	.	.	.	.	.	.	.
8AnX\	6 5	16cc\	.	16ee-\	.	.	.	.	.	.	.	.	.	.	.
.	.	16dd\JJ	.	16ff\JJ	.	.	.	.	.	.	.	.	.	.	.
=39	=39	=39	=39	=39	=39	=39	=39	=39	=39	=39	=39	=39	=39	=39	=39
!	!	!	!	!LO:TX:t=P:problem:mixed beam	!	!	!	!	!	!	!	!	!	!	!
4B-\	.	8b-/L	.	8dd\L	.	.	.	.	.	.	.	8r	.	.	.
!	!	!	!	!	!	!	!	!	!	!	!	!LO:TX:a:t=Solo	!	!	!
.	.	8d/J	.	8f/J	.	.	.	.	.	.	.	16b-\	li-	.	.
.	.	.	.	.	.	.	.	.	.	.	.	16b-\	-be-	.	.
4r	.	8r	.	8r	.	.	.	.	.	.	.	8b-\	-ra	.	.
.	.	16d/LL	.	16B-/LL	.	.	.	.	.	.	.	8b-\	nos	.	.
.	.	16e-X/JJ	.	16c/JJ	.	.	.	.	.	.	.	.	.	.	.
2r	.	(8f/L	.	8d/L	.	.	.	.	.	.	.	2b-T\	sem-	.	.
.	.	8g/	.	8e-X/	.	.	.	.	.	.	.	.	.	.	.
.	.	8f/	.	8d/	.	.	.	.	.	.	.	.	.	.	.
.	.	8g/J)	.	8e-/J	.	.	.	.	.	.	.	.	.	.	.
=40	=40	=40	=40	=40	=40	=40	=40	=40	=40	=40	=40	=40	=40	=40	=40
4r	.	4d/	.	4B-/	.	0r	.	8r	.	0rB	.	8b-,<\	-per	.	.
!	!	!	!	!	!	!	!	!LO:TX:a:t=a2.	!	!	!	!	!	!	!
.	.	.	.	.	.	.	.	16B-\	li-	.	.	16dd\	li-	.	.
.	.	.	.	.	.	.	.	16c\	-be-	.	.	16ee-\	-be-	.	.
8r	.	4r	.	4r	.	.	.	8d\	-ra	.	.	8ff\	-ra	.	.
8BB-/	.	.	.	.	.	.	.	8d\	nos	.	.	8b-\	nos	.	.
8E-X\L	.	2r	.	2r	.	.	.	8e-X\	sem-	.	.	8gg\	sem-	.	.
8E-\	.	.	.	.	.	.	.	8e-\	-per	.	.	8gg\	-per	.	.
8F\	8 6	.	.	.	.	.	.	8d\	Vir-	.	.	8ff\	Vir-	.	.
8F\J	7 5	.	.	.	.	.	.	8c\	-go	.	.	8ee-X\	-go	.	.
=41	=41	=41	=41	=41	=41	=41	=41	=41	=41	=41	=41	=41	=41	=41	=41
!	!	!LO:TX:b:t=Vertat(ur)	!	!LO:TX:b:t=Vertat(ur)	!	!	!	!	!	!	!	!	!	!	!
8G\L	.	0r	.	0r	.	.	.	(16B-\LL	glo-	.	.	(16dd\LL	glo-	.	.
.	.	.	.	.	.	.	.	16c\JJ)	.	.	.	16ee-X\JJ)	.	.	.
16F\L	.	.	.	.	.	.	.	(16B-\LL	-ri-	.	.	(16dd\LL	-ri-	.	.
16E-\JJ	.	.	.	.	.	.	.	16c\JJ)	.	.	.	16ee-\JJ)	.	.	.
!	!	!	!	!	!	!	!	!	!	!	!	!LO:LB:g=original	!	!	!
=-	=-	=-	=-	=-	=-	=-	=-	=-	=-	=-	=-	=-	=-	=-	=-
16D\LL	6	.	.	.	.	.	.	8d\L	-o-	.	.	8ff\L	-o-	.	.
16E-X\	.	.	.	.	.	.	.	.	.	.	.	.	.	.	.
16D\	.	.	.	.	.	.	.	16c\L	.	.	.	16ee-\L	.	.	.
16E-\JJ	.	.	.	.	.	.	.	16B-\JJ	.	.	.	16dd\JJ	.	.	.
8F\L	.	.	.	.	.	.	.	8A/	sa	.	.	8cc,<\	sa	.	.
16E-\L	.	.	.	.	.	.	.	8r	.	.	.	16cc\LL	et	.	.
16D\JJ	.	.	.	.	.	.	.	.	.	.	.	16dd\JJ	.	.	.
8C/L	.	.	.	.	.	.	.	8r	.	.	.	[<4ee-X\	be-	.	.
!	!	!	!	!	!	!	!	!LO:SIC:v:t=custos c	!	!	!	!	!	!	!
8BB-/J	.	.	.	.	.	.	.	8G/	et	.	.	.	.	.	.
!	!	!	!	!	!	!	!	!LO:LB:g=original	!	!	!	!	!	!	!
=42	=42	=42	=42	=42	=42	=42	=42	=42	=42	=42	=42	=42	=42	=42	=42
8AAn/L	-5r	.	.	.	.	1r	.	8c\L	be-	1rc	.	8ee-\L]	.	1r	1r
8GG/J	.	.	.	.	.	.	.	8B-\J	.	.	.	16ff\L	.	.	.
.	.	.	.	.	.	.	.	.	.	.	.	16gg\JJ	.	.	.
16AA/LL	6	.	.	.	.	.	.	16c\LL	.	.	.	8ff\	.	.	.
16FF/	.	.	.	.	.	.	.	16A\	.	.	.	.	.	.	.
16GG/	-6r	.	.	.	.	.	.	16B-\	.	.	.	8ee-\	-ne-	.	.
16AA/JJ	5	.	.	.	.	.	.	16c\JJ	.	.	.	.	.	.	.
8BB-X/L	.	.	.	.	.	.	.	8F/	.	.	.	8dd\L	-di-	.	.
8E-X/	6 5	.	.	.	.	.	.	8B-\	-ne-	.	.	8cc\J	.	.	.
8F/	.	.	.	.	.	.	.	(8B-\L	-di-	.	.	4ccT\	.	.	.
8FF/J	.	.	.	.	.	.	.	8A\J)	.	.	.	.	.	.	.
!	!	!LO:PB:g=original	!	!LO:PB:g=original	!	!	!	!	!	!	!	!	!	!	!
=43	=43	=43	=43	=43	=43	=43	=43	=43	=43	=43	=43	=43	=43	=43	=43
!	!	!	!	!	!LO:DY:a:t=For.	!	!	!	!	!	!	!	!	!	!
8BB-/L	.	16dd\LL	.	16bb-\LL	f	8r	.	8B-,<\	-cta,	8r	.	8b-,<\	-cta	8r	8r
.	.	16ee-\	.	16ccc\	.	.	.	.	.	.	.	.	.	.	.
16BB-/L	.	16ff\	.	16ddd\	.	16BB-/	li-	16d\	li-	16f\	li-	16b-\	li-	16dd\LL	16ff\LL
16C/JJ	.	16ee-\JJ	.	16ccc\JJ	.	16C/	-be-	16e-\	-be-	16e-X\	-be-	16an\	-be-	16cc\JJ	16ee-\JJ
8D/L	6	8dd\L	.	8bb-\L	.	8D\	-ra	8d\	-ra	8f\	-ra	8b-\	-ra	8b-\L	8dd\L
!LO:SIC:v:t=custos F	!	!	!	!	!	!	!	!	!	!	!	!	!	!	!
8E-/J	7 5	8dd\J	.	[8bb-\J	.	8E-\	nos	8d\	nos	8g\	nos	8b-\	nos	8b-\J	8dd\J
!LO:LB:g=original	!	!	!	!	!	!	!	!	!	!	!	!	!	!	!
=-	=-	=-	=-	=-	=-	=-	=-	=-	=-	=-	=-	=-	=-	=-	=-
4F\	4	8cc\L	.	16bb-\LL]	.	8F\	sem-	8c\	sem-	8f\	sem-	(16b-\LL	sem-	8f/L	8cc\L
.	3	.	.	16aa\J	.	.	.	.	.	.	.	16a\JJ)	.	.	.
.	.	8cc\	.	8aa\J	.	8F\	-per	8c\	-per	8f\	-per	8a\	-per	8f/	8cc\
4D\	6	8ff\	.	8ddd\L	.	8D/	Vir-	8d\	Vir-	8f\	Vir-	8b-\	Vir-	8b-/	8dd\
.	.	8ff\J	.	8ddd\J	.	8D/	-go	8d\	-go	8f\	-go	8b-\	-go	8b-/J	8dd\J
=44	=44	=44	=44	=44	=44	=44	=44	=44	=44	=44	=44	=44	=44	=44	=44
!LO:TX:t=P:problem:mixed beam	!	!	!	!	!	!	!	!	!	!	!	!	!	!	!
8E-\L	.	8b-\L	.	8gg\L	.	8E-X\	glo-	16B-\LL	glo-	8e-X\	glo-	(16g\LL	glo-	8b-\L	8gg\L
.	.	.	.	.	.	.	.	16c\JJ	.	.	.	16a\JJ)	.	.	.
8D\	6	8b-\	.	8ff\	.	8D\	-ri-	8d\	-ri-	8f\	-ri-	8b-\	-ri-	8b-\J	8ff\J
8C\	7	8ee-\	.	8gg\	.	8C/L	-o-	4e-X\	-o-	8g\L	-o-	(8b-\L	-o-	16cc\LL	16ee-\LL
.	.	.	.	.	.	.	.	.	.	.	.	.	.	16dd\	16ff\
8FF/J	7	8ee-\J	.	8aa\J	.	8FF/J	.	.	.	8f\J	.	8a\J)	.	16cc\	16ee-\
.	.	.	.	.	.	.	.	.	.	.	.	.	.	16dd\JJ	16ff\JJ
4BB-/	.	8dd\L	.	8bb-\L	.	4BB-/	-sa	4d,<\	-sa	4f,<\	-sa	4b-,<\	-sa	4b-\	4dd\
.	.	8dd\J	.	8bb-\	.	.	.	.	.	.	.	.	.	.	.
!	!	!	!	!	!	!	!	!	!	!LO:SIC:v:t=custos f	!	!	!	!	!
4G\	-6r	[4ee-\	.	8bb-\	.	4G\	et	[<4e-X\	et	4g\	et	4b-\	et	8b-\L	16ee-\LL
.	.	.	.	.	.	.	.	.	.	.	.	.	.	.	16ff\
.	.	.	.	8bb-\J	.	.	.	.	.	.	.	.	.	8b-\J	16ee-\
!	!	!	!	!	!	!	!	!	!	!	!	!	!	!	!LO:SIC:v:t=custos ee
.	.	.	.	.	.	.	.	.	.	.	.	.	.	.	16ff\JJ
!	!	!	!	!	!	!	!	!	!	!LO:LB:g=original	!	!	!	!LO:LB:g=original	!LO:LB:g=original
=45	=45	=45	=45	=45	=45	=45	=45	=45	=45	=45	=45	=45	=45	=45	=45
4AnX\	6 5	8ee-\L]	.	8ccc\L	.	4An\	be-	4e-\]	.	4f\	be-	8cc\	be-	16cc\LL	16ee-\LL
.	.	.	.	.	.	.	.	.	.	.	.	.	.	16dd\	16ff\
.	.	8ee-\	.	8ccc\	.	.	.	.	.	.	.	8cc\	-ne-	16cc\	16ee-\
.	.	.	.	.	.	.	.	.	.	.	.	.	.	16dd\JJ	16ff\JJ
4B-\	.	8dd\	.	8ff\	.	4B-\	-ne-	8d\	be-	4f\	-ne-	2cc\	-di-	16b-\LL	16dd\LL
.	.	.	.	.	.	.	.	.	.	.	.	.	.	16cc\	16ee-\
.	.	8dd\J	.	8ff\J	.	.	.	8d\	-ne-	.	.	.	.	16b-\	16dd\
.	.	.	.	.	.	.	.	.	.	.	.	.	.	16cc\JJ	16ee-\JJ
!	!	!LO:TX:t=P:problem:mixed beam	!	!LO:TX:t=P:problem:mixed beam	!	!	!	!	!	!	!	!	!	!LO:TX:t=P:problem:mixed beam	!
4E-X\	6 5	8ee-\L	.	8gg\L	.	(4E-X\	-di-	2cT\	-di-	(4g\	-di-	.	.	8b-\L	8cc\L
.	.	8ee-\	.	8gg\	.	.	.	.	.	.	.	.	.	8B-/J	8cc\
!	!	!	!	!	!	!	!	!	!	!	!	!LO:SIC:v:t=custos b	!	!	!
4F\	.	8cc\	.	8aa\	.	4F\)	.	.	.	4f\)	.	4a\	.	16f/LL	8.ccT\
.	.	.	.	.	.	.	.	.	.	.	.	.	.	16f/	.
.	.	8A/J	.	8c/J	.	.	.	.	.	.	.	.	.	16f/	.
.	.	.	.	.	.	.	.	.	.	.	.	.	.	16f/JJ	16cc\Jk
!	!	!	!	!	!	!	!	!	!	!	!	!LO:LB:g=original	!	!	!
=46	=46	=46	=46	=46	=46	=46	=46	=46	=46	=46	=46	=46	=46	=46	=46
!	!	!	!	!	!LO:DY:a:t=For.	!	!	!	!	!	!	!	!	!	!LO:TX:a:t=S.
4BB-/	.	8d/	.	16B-/LL	f	4BB-/	-cta.	4d\	-cta.	4f\	-cta	4b-\	-cta.	8d/	16b-\LL
.	.	.	.	16d/	.	.	.	.	.	.	.	.	.	.	16dd\
.	.	8r	.	16B-/	.	.	.	.	.	.	.	.	.	8r	16b-\
.	.	.	.	16c/JJ	.	.	.	.	.	.	.	.	.	.	16cc\JJ
4r	.	4r	.	8d/L	.	4r	.	4r	.	4r	.	4r	.	4r	8dd\L
.	.	.	.	8e-X/J	.	.	.	.	.	.	.	.	.	.	8ee-\J
!	!	!	!LO:DY:a:t=For.	!	!	!	!	!LO:TX:b:t=Vertat(ur)	!	!	!	!	!	!	!
2r	.	16B-/LL	f	16d/LL	.	2r	.	2r	.	2r	.	2r	.	16b-\LL	16dd\LL
.	.	16d/	.	16f/	.	.	.	.	.	.	.	.	.	16dd\	16ff\
.	.	16B-/	.	16d/	.	.	.	.	.	.	.	.	.	16b-\	16dd\
.	.	16c/JJ	.	16e-X/JJ	.	.	.	.	.	.	.	.	.	16cc\JJ	16ee-\JJ
.	.	8d/L	.	8f/L	.	.	.	.	.	.	.	.	.	8dd\L	8ff\L
.	.	8e-X/J	.	8g/J	.	.	.	.	.	.	.	.	.	8ee-\J	8gg\J
!	!	!	!	!	!	!	!	!LO:PB:g=original	!	!	!	!	!	!	!
=47	=47	=47	=47	=47	=47	=47	=47	=47	=47	=47	=47	=47	=47	=47	=47
16BB-/LL	.	16d/LL	.	16f/LL	.	00r	.	00r	.	0rc	.	0r	.	4dd\	4ff\
16D/	6	16f/	.	16b-/	.	.	.	.	.	.	.	.	.	.	.
16BB-/	.	16d/	.	16b-/	.	.	.	.	.	.	.	.	.	.	.
16C/JJ	6\	16e-X/JJ	.	16a/JJ	.	.	.	.	.	.	.	.	.	.	.
!	!	!	!	!LO:TX:t=P:problem:mixed beam	!	!	!	!	!	!	!	!	!	!	!
8D\L	6	8f/L	.	16b-/LL	.	.	.	.	.	.	.	.	.	4r	4r
.	.	.	.	16f/	.	.	.	.	.	.	.	.	.	.	.
8E-X\J	7 5	8g/J	.	16ee-X\	.	.	.	.	.	.	.	.	.	.	.
!	!	!	!	!LO:SIC:v:t=custos cc	!	!	!	!	!	!	!	!	!	!	!
.	.	.	.	16dd\JJ	.	.	.	.	.	.	.	.	.	.	.
!	!	!	!	!LO:LB:g=original	!	!	!	!	!	!	!	!	!	!	!
=-	=-	=-	=-	=-	=-	=-	=-	=-	=-	=-	=-	=-	=-	=-	=-
8F\L	.	16a\LL	.	16cc\LL	.	.	.	.	.	.	.	.	.	8r	8r
.	.	16cc\	.	16a\	.	.	.	.	.	.	.	.	.	.	.
8D\	6	16dd\	.	16f\	.	.	.	.	.	.	.	.	.	8dd\L	8ff\L
.	.	16dd\JJ	.	16ff\JJ	.	.	.	.	.	.	.	.	.	.	.
8E-\	6	16cc\LL	.	16ee-X\LL	.	.	.	.	.	.	.	.	.	8cc\	8ee-\
.	.	16b-\	.	16dd\	.	.	.	.	.	.	.	.	.	.	.
8F\J	.	16cc\	.	16ee-\	.	.	.	.	.	.	.	.	.	8f\J	8cc\J
.	.	16a\JJ	.	16cc\JJ	.	.	.	.	.	.	.	.	.	.	.
!	!	!LO:LB:g=original	!	!	!	!	!	!	!	!	!	!	!	!	!
=48	=48	=48	=48	=48	=48	=48	=48	=48	=48	=48	=48	=48	=48	=48	=48
!	!	!LO:TX:t=P:problem:mixed beam	!	!LO:TX:t=P:problem:mixed beam	!	!	!	!	!	!	!	!	!	!	!
4BB-/	.	16b-\LL	.	16dd\LL	.	.	.	.	.	.	.	.	.	4b-\	4dd\
.	.	16d/	.	16f/	.	.	.	.	.	.	.	.	.	.	.
.	.	16c/	.	16e-X/	.	.	.	.	.	.	.	.	.	.	.
.	.	16B-/JJ	.	16d/JJ	.	.	.	.	.	.	.	.	.	.	.
4r	.	16e-X/LL	.	16g/LL	.	.	.	.	.	.	.	.	.	4r	4r
.	.	16c/	.	16e-/	.	.	.	.	.	.	.	.	.	.	.
.	.	16B-/	.	16d/	.	.	.	.	.	.	.	.	.	.	.
.	.	16A/JJ	.	16c/JJ	.	.	.	.	.	.	.	.	.	.	.
!LO:TX:t=P:problem:mixed beam	!	!	!	!	!	!	!	!	!	!	!	!	!	!	!
8D\L	6	16B-/LL	.	16f/LL	.	.	.	.	.	.	.	.	.	8dd\L	8ff\L
.	.	16f/	.	16d/	.	.	.	.	.	.	.	.	.	.	.
8E-\	6 5	16e-X/	.	16c/	.	.	.	.	.	.	.	.	.	16cc\L	16ee-\L
.	.	16d/JJ	.	16B-/JJ	.	.	.	.	.	.	.	.	.	16b-\JJ	16dd\JJ
!	!	!	!	!LO:TX:t=P:problem:mixed beam	!	!	!	!	!	!	!	!	!	!	!
8F\	.	8c/L	.	8A/L	.	.	.	.	.	.	.	.	.	8f/L	8.ccT\L
8FF/J	.	8a/J	.	8cc\J	.	.	.	.	.	.	.	.	.	16f/L	.
.	.	.	.	.	.	.	.	.	.	.	.	.	.	16f/JJ	16cc\Jk
=49	=49	=49	=49	=49	=49	=49	=49	=49	=49	=49	=49	=49	=49	=49	=49
4BB-/	.	16b-\LL	.	16dd\LL	.	.	.	.	.	2r	.	2r	.	16b-\LL	16dd\LL
.	.	16dd\	.	16ff\	.	.	.	.	.	.	.	.	.	16dd\	16ff\
.	.	16b-\	.	16dd\	.	.	.	.	.	.	.	.	.	16b-\	16dd\
.	.	16cc\JJ	.	16ee-\JJ	.	.	.	.	.	.	.	.	.	16cc\JJ	16ee-\JJ
8r	.	8dd\L	.	8ff\L	.	.	.	.	.	.	.	.	.	8dd\L	8ff\L
!LO:SIC:v:t=custos BB	!	!	!	!	!	!	!	!	!	!	!	!	!	!	!
8E-X\	.	8ee-\J	.	8gg\J	.	.	.	.	.	.	.	.	.	8ee-\J	8gg\J
!LO:LB:g=original	!	!	!	!	!	!	!	!	!	!	!	!	!	!	!
=-	=-	=-	=-	=-	=-	=-	=-	=-	=-	=-	=-	=-	=-	=-	=-
4BB-/	.	8dd\L	.	8ff\L	.	.	.	.	.	4r	.	4r	.	8dd\L	8ff\L
.	.	8b-\J	.	8dd\J	.	.	.	.	.	.	.	.	.	8b-\J	8dd\J
!	!	!	!	!	!	!	!	!	!	!LO:TX:a:t=S.	!	!LO:TX:a:t=a2.	!	!	!
[<4E-\	.	4r	.	4r	.	.	.	.	.	8g\	Vir-	8b-\	Vir-	4r	4r
.	.	.	.	.	.	.	.	.	.	8g\	-go	8b-\	-go	.	.
!	!	!	!	!	!	!	!	!	!	!	!	!	!	!LO:LB:g=original	!
=50	=50	=50	=50	=50	=50	=50	=50	=50	=50	=50	=50	=50	=50	=50	=50
4E-\]	-4r 2	1r	.	1r	.	.	.	.	.	(8f\L	glo-	(8a-X\L	glo-	1rff	1r
.	.	.	.	.	.	.	.	.	.	8e-X\J)	.	8g\J)	.	.	.
4D\	-5r	.	.	.	.	.	.	.	.	(8f\L	-ri-	(8a-\L	-ri-	.	.
.	.	.	.	.	.	.	.	.	.	8g\J)	.	8b-\J)	.	.	.
8E-\	.	.	.	.	.	.	.	.	.	(16e-\LL	-o-	(16g\LL	-o-	.	.
.	.	.	.	.	.	.	.	.	.	16f\JJ)	.	16a-X\JJ)	.	.	.
8r	.	.	.	.	.	.	.	.	.	(16g\LL	-sa	(16b-\LL	-sa	.	.
.	.	.	.	.	.	.	.	.	.	16f\JJ)	.	16a-\JJ)	.	.	.
8E-\L	.	.	.	.	.	.	.	.	.	16g\LL	et	(16b-\LL	et	.	.
.	.	.	.	.	.	.	.	.	.	16e-X\	.	16g\	.	.	.
8D\J	.	.	.	.	.	.	.	.	.	16f\	.	16a-X\	.	.	.
.	.	.	.	.	.	.	.	.	.	16g\JJ	.	16b-\JJ)	.	.	.
!	!	!	!	!	!	!	!	!	!	!	!	!	!	!	!LO:LB:g=original
=51	=51	=51	=51	=51	=51	=51	=51	=51	=51	=51	=51	=51	=51	=51	=51
8C\L	-6r	2r	.	2r	.	0r	.	0r	.	(8a-X\L	be-	(8cc\L	be-	2r	2r
8G\	-6r	.	.	.	.	.	.	.	.	8g\J)	.	8b-\J)	.	.	.
8A-X\	6	.	.	.	.	.	.	.	.	(8f\L	-ne-	(8a-X\L	-ne-	.	.
8E-\J	.	.	.	.	.	.	.	.	.	8e-\J)	.	8g\J)	.	.	.
!LO:TX:t=P:problem:mixed beam	!	!	!	!	!	!	!	!	!	!	!	!	!	!	!
8B-\L	.	16b-\LL	.	16dd\LL	.	.	.	.	.	8d\	-di-	8f/	-di-	16b-\LL	16dd\LL
.	.	16dd\	.	16ff\	.	.	.	.	.	.	.	.	.	16dd\	16ff\
8BB-/J	.	16b-\	.	16dd\	.	.	.	.	.	8d\	-cta	8f/	-cta	16b-\	16dd\
.	.	16cc\JJ	.	16ee-\JJ	.	.	.	.	.	.	.	.	.	16cc\JJ	16ee-\JJ
8r	.	8dd\L	.	8ff\L	.	.	.	.	.	4r	.	4r	.	8dd\L	8ff\L
8E-\	.	8ee-\J	.	8gg\J	.	.	.	.	.	.	.	.	.	8ee-\J	8gg\J
=52	=52	=52	=52	=52	=52	=52	=52	=52	=52	=52	=52	=52	=52	=52	=52
4B-\	.	8dd\L	.	8ff\L	.	.	.	.	.	0rc	.	0r	.	8dd\L	8ff\L
.	.	16b-\L	.	16dd\L	.	.	.	.	.	.	.	.	.	8b-\J	8dd\J
.	.	16cc\JJ	.	16ee-\JJ	.	.	.	.	.	.	.	.	.	.	.
4r	.	16dd\LL	.	16ff\LL	.	.	.	.	.	.	.	.	.	4r	4r
.	.	16ee-X\	.	16gg\	.	.	.	.	.	.	.	.	.	.	.
.	.	16dd\	.	16ff\	.	.	.	.	.	.	.	.	.	.	.
.	.	16ee-\JJ	.	16gg\JJ	.	.	.	.	.	.	.	.	.	.	.
8r	.	8ff\L	.	8aa-X\L	.	.	.	.	.	.	.	.	.	2r	2r
16F\LL	-	8ff\	.	8aa-\	.	.	.	.	.	.	.	.	.	.	.
16G\JJ	.	.	.	.	.	.	.	.	.	.	.	.	.	.	.
16A-X\LL	6	8ff\	.	8aa-\	.	.	.	.	.	.	.	.	.	.	.
16B-\	.	.	.	.	.	.	.	.	.	.	.	.	.	.	.
!	!	!	!	!LO:SIC:v:t=custos gg	!	!	!	!	!	!	!	!	!	!	!
16A-\	.	8ff\J	.	8aa-\J	.	.	.	.	.	.	.	.	.	.	.
16B-\JJ	.	.	.	.	.	.	.	.	.	.	.	.	.	.	.
!	!	!	!	!LO:LB:g=original	!	!	!	!	!	!	!	!	!	!	!
=53	=53	=53	=53	=53	=53	=53	=53	=53	=53	=53	=53	=53	=53	=53	=53
!	!	!	!	!	!	!LO:SIC:v:t=custos E-	!	!	!	!	!	!	!	!	!
!	!	!	!	!	!	!LO:TX:b:t=Vertat(ur)	!	!	!	!LO:SIC:v:t=custos d	!	!	!	!	!
8c\L	-	8ee-X\L	.	8gg\L	.	1r	.	1r	.	.	.	.	.	1rff	1r
8c\	.	16cc\L	.	16ee-\L	.	.	.	.	.	.	.	.	.	.	.
.	.	16dd\JJ	.	16ff\JJ	.	.	.	.	.	.	.	.	.	.	.
8B-\	2	16ee-X\LL	.	16gg\LL	.	.	.	.	.	.	.	.	.	.	.
.	.	16ff\	.	16aa-X\	.	.	.	.	.	.	.	.	.	.	.
8A-X\J	6	16ee-\	.	16gg\	.	.	.	.	.	.	.	.	.	.	.
!	!	!LO:SIC:v:t=custos gg	!	!	!	!	!	!	!	!	!	!	!	!	!
.	.	16ff\JJ	.	16aa-\JJ	.	.	.	.	.	.	.	.	.	.	.
!	!	!LO:LB:g=original	!	!	!	!	!	!	!	!	!	!	!	!	!
=-	=-	=-	=-	=-	=-	=-	=-	=-	=-	=-	=-	=-	=-	=-	=-
!LO:TX:t=P:problem:mixed beam	!	!	!	!	!	!	!	!	!	!	!	!	!	!	!
8G\L	6	8gg\L	.	8bb-\L	.	.	.	.	.	.	.	.	.	.	.
8A-X\	6 5	16ff\L	.	16aa-X\L	.	.	.	.	.	.	.	.	.	.	.
.	.	16ee-\JJ	.	16gg\JJ	.	.	.	.	.	.	.	.	.	.	.
8B-\	.	8.ddt\L	.	8.ffT\L	.	.	.	.	.	.	.	.	.	.	.
8BB-/J	.	.	.	.	.	.	.	.	.	.	.	.	.	.	.
.	.	16dd\Jk	.	16ff\Jk	.	.	.	.	.	.	.	.	.	.	.
!	!	!	!	!	!	!LO:LB:g=original	!	!	!	!LO:PB:g=original	!	!	!	!	!
=54	=54	=54	=54	=54	=54	=54	=54	=54	=54	=54	=54	=54	=54	=54	=54
8E-\L	.	4ee-\	.	4gg\	.	8E-\	Vir-	2r	.	2r	.	8g\	Vir-	2r	2r
8E-\	.	.	.	.	.	8E-\	-go	.	.	.	.	8g\	-go	.	.
8E-\	.	4r	.	4r	.	8E-\	glo-	.	.	.	.	8g\	glo-	.	.
!LO:SIC:v:t=custos G	!	!	!	!	!	!	!	!	!	!	!	!	!	!	!
8F\J	.	.	.	.	.	8F\	-ri-	.	.	.	.	8a-X\	-ri-	.	.
!LO:LB:g=original	!	!	!	!	!	!	!	!	!	!	!	!	!	!	!
=-	=-	=-	=-	=-	=-	=-	=-	=-	=-	=-	=-	=-	=-	=-	=-
16G\LL	5	8b-\L	.	8dd\L	.	16G\LL	-o-	8B-\	Vir-	8d\	Vir-	16b-\LL	-o-	8b-\L	8dd\L
16F\	.	.	.	.	.	16F\	.	.	.	.	.	16a-X\	.	.	.
16G\	.	8b-\	.	8dd\	.	16G\	.	8B-\	-go	8d\	-go	16b-\	.	8b-\	8dd\
16A-X\JJ	.	.	.	.	.	16A-X\JJ	.	.	.	.	.	16cc\JJ	.	.	.
8G\L	.	8b-\	.	8dd\	.	8G\L	.	8B-\	glo-	8d\	glo-	8b-\L	.	8b-\	8dd\
16F\L	.	8cc\J	.	8ee-X\J	.	16F\L	.	8c\	-ri-	8e-X\	-ri-	16a-X\L	.	8cc\J	8ee-\J
!	!	!	!	!	!	!	!	!	!	!	!	!LO:SIC:v:t=custos f	!	!	!
16E-\JJ	.	.	.	.	.	16E-\JJ	.	.	.	.	.	16g\JJ	.	.	.
!	!	!	!	!	!	!	!	!	!	!	!	!LO:LB:g=original	!	!	!
=55	=55	=55	=55	=55	=55	=55	=55	=55	=55	=55	=55	=55	=55	=55	=55
4.D\	.	16dd\LL	.	16ff\LL	.	8D/	.	16d\LL	-o-	16f\LL	-o-	8f/	.	16dd\LL	16ff\LL
.	.	16cc\	.	16ee-\	.	.	.	16c\	.	16e-X\	.	.	.	16cc\	16ee-\
.	.	16dd\	.	16ff\	.	8D,</	-sa	16d\	.	16f\	.	8f,</	-sa	16dd\	16ff\
.	.	16ee-\JJ	.	16gg\JJ	.	.	.	16e-X\JJ	.	16g\JJ	.	.	.	16ee-\JJ	16gg\JJ
.	.	8dd\L	.	8ff\L	.	8D/	glo-	8d\L	.	8f\L	.	8f/	glo-	8dd\L	8ff\L
8E-\	.	16cc\L	.	16ee-X\L	.	8E-/	-ri-	16c\L	.	16e-\L	.	8g/	-ri-	16cc\L	16ee-\L
.	.	16b-\JJ	.	16dd\JJ	.	.	.	16B-\JJ	.	16d\JJ	.	.	.	16b-\JJ	16dd\JJ
16F\LL	5 n	8a/L	.	8cc\L	.	16F\LL	-o-	8A/	.	8c/	.	16an\LL	-o-	8f/L	8cc\L
16E-\	.	.	.	.	.	16E-X\	.	.	.	.	.	16g\	.	.	.
16F\	.	8a/	.	8cc\	.	16F\	.	8A,</	-sa	8c,</	-sa	16a\	.	8f/J	8cc\J
16G\JJ	.	.	.	.	.	16G\JJ	.	.	.	.	.	16b-\JJ	.	.	.
8F\L	.	8a/	.	8cc\	.	8F\L	.	8A/	glo-	8c/	glo-	8a\L	.	4r	4r
16E-X\L	.	8b-/J	.	8dd\J	.	16E-X\L	.	8B-/	-ri-	8d/	-ri-	16g\L	.	.	.
16D\JJ	.	.	.	.	.	16D\JJ	.	.	.	.	.	16f\JJ	.	.	.
=56	=56	=56	=56	=56	=56	=56	=56	=56	=56	=56	=56	=56	=56	=56	=56
!LO:TX:a:t=P:problem:znak cyfrowania nad nutą	!	!	!	!	!	!	!	!	!	!	!	!	!	!	!
8C/L	-	16cc\LL	.	16ee-X\LL	.	8C/	.	16c\LL	-o-	16e-X\LL	-o-	4g/	-sa	1rff	1r
.	.	16b-\	.	16dd\	.	.	.	16B-\	.	16d\	.	.	.	.	.
8C/	.	16cc\	.	16ee-\	.	8C,</	-sa	16c\	.	16e-\	.	.	.	.	.
.	.	16dd\JJ	.	16ff\JJ	.	.	.	16d\JJ	.	16f\JJ	.	.	.	.	.
8C/	.	8cc\L	.	8ee-\L	.	8C/	glo-	8c\L	.	8e-\L	.	4r	.	.	.
8D/J	.	16b-\L	.	8ff\J	.	8D/	-ri-	16B-\L	.	8f\J	.	.	.	.	.
.	.	16a\JJ	.	.	.	.	.	16A\JJ	.	.	.	.	.	.	.
16E-X\LL	.	8g/	.	16gg\LL	.	16E-X\LL	-o-	8G/	.	16g\LL	.	8g\	Vir-	.	.
16D\	.	.	.	16ff\	.	16D\	.	.	.	16f\	.	.	.	.	.
16E-\	.	4ee-X\	.	16gg\	.	16E-\	.	4e-X\	.	16g\	.	8g\	-go	.	.
16F\JJ	.	.	.	16aa-X\JJ	.	16F\JJ	.	.	.	16a-X\JJ	.	.	.	.	.
8E-\L	.	.	.	8gg\L	.	8E-\L	.	.	.	8g\L	.	8g\	glo-	.	.
!	!	!	!	!	!	!LO:SIC:v:t=custos G	!	!	!	!	!	!	!	!	!
8F\J	.	16dd\LL	.	16ff\L	.	8F\J	.	16d\LL	.	16f\L	.	8a\	-ri-	.	.
.	.	16cc\JJ	.	16ee-\JJ	.	.	.	16c\JJ	.	16e-\JJ	.	.	.	.	.
!	!	!	!	!	!	!LO:LB:g=original	!	!	!	!	!	!	!	!	!
=57	=57	=57	=57	=57	=57	=57	=57	=57	=57	=57	=57	=57	=57	=57	=57
16G\LL	5	16b-\LL	.	8dd\L	.	16G\LL	.	8B-\	.	8d\	.	16b-X\LL	-o-	16b-\LL	8gg\L
16F\	.	16a\	.	.	.	16F\	.	.	.	.	.	16a\	.	16cc\	.
!	!	!	!	!	!	!	!	!LO:SIC:v:t=custos e-	!	!	!	!	!	!	!
16G\	.	16b-\	.	8dd\J	.	16G\	.	8B-\	-sa	8d\	-sa	16b-\	.	16b-\	8gg\J
16An\JJ	.	16cc\JJ	.	.	.	16A\JJ	.	.	.	.	.	16cc\JJ	.	16cc\JJ	.
!	!	!	!	!	!	!	!	!LO:LB:g=original	!	!	!	!	!	!	!
=-	=-	=-	=-	=-	=-	=-	=-	=-	=-	=-	=-	=-	=-	=-	=-
8G\L	-6r	8b-\L	.	8gg\L	.	8G\L	.	8e-\	glo-	8g\	glo-	8b-\L	.	8b-\L	8gg\L
8An\J	-5r	8cc\J	.	16ff\L	.	8An\J	.	8e-\	-ri-	8f\	-ri-	8cc\J	.	8cc\J	16ff\L
!	!	!	!	!LO:SIC:v:t=custos dd	!	!	!	!	!	!	!	!	!	!	!
.	.	.	.	16ee-\JJ	.	.	.	.	.	.	.	.	.	.	16ee-\JJ
!	!	!	!	!LO:LB:g=original	!	!	!	!	!	!LO:LB:g=original	!	!	!	!	!
=-	=-	=-	=-	=-	=-	=-	=-	=-	=-	=-	=-	=-	=-	=-	=-
!LO:TX:t=P:problem:mixed beam	!	!LO:TX:t=P:problem:mixed beam	!	!	!	!	!	!	!	!	!	!	!	!	!
8B-\L	.	8f/L	.	8dd\L	.	8B-\L	.	8d\L	-o-	(8f\L	-o-	8dd\L	.	8b-\L	8dd\L
8E-\	.	16ee-X\L	.	16ccc\L	.	8E-X\J	.	16c\L	.	8g\J)	.	16ee-X\L	.	16cc\L	16ee-\L
.	.	16dd\JJ	.	16bb-\JJ	.	.	.	16B-\JJ	.	.	.	16dd\JJ	.	16b-\JJ	16dd\JJ
8F\	.	8cc\L|	.	8aa\L|	.	8F\	.	8A\	.	8f\	.	8cc\	.	8f/L	8cc\L
8FF/J	.	8cc\J|	.	8aa\J|	.	8FF/	-sa	8A\	-sa	8f\	-sa	8cc\	-sa	8f/J	8cc\J
=58	=58	=58	=58	=58	=58	=58	=58	=58	=58	=58	=58	=58	=58	=58	=58
4r	.	4r	.	4r	.	4r	.	4r	.	4r	.	4r	.	4r	4r
[<4B-\	5 3	8d/L	.	8f/L	.	2B-\	et	(8F/L	et	(8d\L	et	(8f/L	et	8dd\L	8ff\L
!	!	!LO:SIC:v:t=custos c	!	!	!	!	!	!	!	!	!	!	!	!	!LO:SIC:v:t=custos ee
.	6 4	8e-X/J	.	8g/J	.	.	.	8B-/J)	.	8e-\J)	.	8g/J)	.	8ee-\J	8gg\J
!	!	!LO:LB:g=original	!	!	!	!	!	!	!	!	!	!	!	!	!LO:LB:g=original
=-	=-	=-	=-	=-	=-	=-	=-	=-	=-	=-	=-	=-	=-	=-	=-
4B-\]	4 2	4.c/	.	8e-X/L	.	.	.	4G/	be-	4.c/	be-	8e-X/L	be-	8cc\L	8ee-\L
.	.	.	.	16f/L	.	.	.	.	.	.	.	16f/L	.	8cc\	16ff\L
.	.	.	.	16g/JJ	.	.	.	.	.	.	.	16g/JJ	.	.	16gg\JJ
4A\	6 5	.	.	8f/L	.	8A\	be-	4F/	-ne-	.	.	8f/	.	8cc\	8ff\L
!	!	!	!	!	!	!	!	!	!	!	!	!LO:SIC:v:t=custos d	!	!	!
.	.	8c/	.	8e-X/J	.	8A\	-ne-	.	.	8c/	-ne-	8e-/	-ne	8cc\J	8ee-\J
!	!	!	!	!	!	!	!	!	!	!	!	!LO:LB:g=original	!	!LO:LB:g=original	!
=59	=59	=59	=59	=59	=59	=59	=59	=59	=59	=59	=59	=59	=59	=59	=59
4B-\	5	8B-/L	.	8d/L	.	4.B-\	-di-	8F/	-dic-	8B-/	-dic-	8d/	-dic-	4b-\	8dd\L
.	.	8B-/	.	8en/J	.	.	.	8F,</	-ta	8B-/	-ta	8en/	-ta	.	8eeX\J
8B-\L	6	8B-/	.	4.f/	.	.	.	8F/	be-	8B-/	be-	4.f/	be-	8dd\L	8ff\L
!LO:SIC:v:t=custos G	!	!	!	!	!	!	!	!	!	!	!	!	!	!	!
8A\J	.	8c/J	.	.	.	8A\	.	8F/	-ne-	8c/	-ne-	.	.	8cc\J	8ff\J
!LO:LB:g=original	!	!	!	!	!	!	!	!	!	!	!	!	!	!	!
=-	=-	=-	=-	=-	=-	=-	=-	=-	=-	=-	=-	=-	=-	=-	=-
2G\	7	4d/	.	.	.	2G\	.	4B-\	-di-	4d\	-di-	.	.	8b-\L	4ff\
.	6	.	.	8en/	.	.	.	.	.	.	.	8en/	-ne-	8b-\	.
.	.	4B-/	.	[4b-/	.	.	.	4en\	.	4B-/	-cta	[<4b-\	-di-	8b-\	4eenXt\
.	.	.	.	.	.	.	.	.	.	.	.	.	.	8b-\J	.
=60	=60	=60	=60	=60	=60	=60	=60	=60	=60	=60	=60	=60	=60	=60	=60
*	*	*	*	*	*	*	*	*	*	*	*ij	*	*	*	*
2F\	4	4.f/	.	8b-/L]	.	2F,<\	cta	2c\	.	4.f\	be-	8b-\]	.	4cc\	4ff\
.	3	.	.	8a/J	.	.	.	.	.	.	.	8a\	-cta	.	.
.	-7r	.	.	4.ee-X\	.	.	.	.	.	.	.	4.ee-X\	be-	4r	4r
.	.	8f/	.	.	.	.	.	.	.	8f\	-ne-	.	.	.	.
4.B-\	-4r	2f/	.	.	.	4.B-\	be-	4B-X,<\	-cta	2f\	-di-	.	.	2r	4r
.	3	.	.	8dd\	.	.	.	.	.	.	.	8dd\	-ne-	.	.
.	.	.	.	[<4ff\	.	.	.	8d\	be-	.	.	[<4ff\	-di-	.	8r
8A\	6	.	.	.	.	8A\	-ne-	8c\	-ne-	.	.	.	.	.	8ff\
=61	=61	=61	=61	=61	=61	=61	=61	=61	=61	=61	=61	=61	=61	=61	=61
2G\	7	2g/	.	8ff\L]	.	2G\	-dic-	2B-\	-di-	2g,<\	-cta	8ff\]	.	8r	8bb-\L
*	*	*	*	*	*	*	*	*	*	*	*Xij	*	*	*	*
.	6	.	.	8b-\J	.	.	.	.	.	.	.	8b-\	-cta	8ff\	8bb-\
.	.	.	.	4.ee-X\	.	.	.	.	.	.	.	4.ee-X\	be-	8eeX\L	8bb-\
.	.	.	.	.	.	.	.	.	.	.	.	.	.	8ee\J	8bb-\J
4F\	7	4cc\	.	.	.	4F,<\	-ta	4A\	.	4c/	be-	.	.	8ff\	8aa\L
.	.	.	.	8ff\	.	.	.	.	.	.	.	16ff\LL	.	8r	8cc\J
.	.	.	.	.	.	.	.	.	.	.	.	16ee-\JJ	.	.	.
!	!	!	!	!	!	!	!	!LO:SIC:v:t=custos B	!	!LO:TX:t=P:problem:mixed beam	!	!	!	!	!
4B-\	.	[<4b-\	.	[<4dd\	.	8B-\	be-	[<4B-\	.	(<8B-/L	-ne-	(8dd\L	-ne-	16b-\LL	16dd\LL
.	.	.	.	.	.	.	.	.	.	.	.	.	.	16cc\	16ee-\
.	.	.	.	.	.	8B-\	-ne-	.	.	8f\J)	.	8cc\J)	.	16b-\	16dd\
.	.	.	.	.	.	.	.	.	.	.	.	.	.	16cc\JJ	16ee-\JJ
!	!	!	!	!	!	!	!	!LO:LB:g=original	!	!	!	!	!	!	!
=62	=62	=62	=62	=62	=62	=62	=62	=62	=62	=62	=62	=62	=62	=62	=62
!	!	!	!	!	!	!	!	!LO:TX:t=P:problem:brak zakończenia ligatury	!	!	!	!	!	!	!
4E-X\	7 5	4b-\]	.	8dd\L]	.	4E-X\	-di-	(4B-\]	.	(4g\	-di-	(4dd\	-di-	16b-\LL	16dd\LL
.	.	.	.	.	.	.	.	.	.	.	.	.	.	16cc\	16ee-\
.	.	.	.	8dd\J	.	.	.	.	.	.	.	.	.	16b-\	16dd\
.	.	.	.	.	.	.	.	.	.	.	.	.	.	16cc\JJ	16ee-\JJ
!	!	!	!	!	!	!LO:SIC:v:t=custos BB	!	!	!	!	!	!	!	!	!
4F\	.	4a\	.	4ccT\	.	4F\	.	4A\)	.	4f\)	.	4cc\)	.	16f/LL	4ccT\
.	.	.	.	.	.	.	.	.	.	.	.	.	.	16f/	.
.	.	.	.	.	.	.	.	.	.	.	.	.	.	16f/	.
.	.	.	.	.	.	.	.	.	.	.	.	.	.	16f/JJ	.
!	!	!	!	!	!	!LO:LB:g=original	!	!	!	!	!	!	!	!	!
=-	=-	=-	=-	=-	=-	=-	=-	=-	=-	=-	=-	=-	=-	=-	=-
!	!	!	!	!	!	!	!	!	!	!LO:SIC:v:t=custos f	!	!	!	!	!
4BB-/	.	16b-\LL	.	16dd\LL	.	4BB-,</	-cta	4B-,<\	-cta	4d\	-cta	4b-,<\	-cta	4d/	4b-\
.	.	16dd\	.	16ff\	.	.	.	.	.	.	.	.	.	.	.
.	.	16b-\	.	16dd\	.	.	.	.	.	.	.	.	.	.	.
!	!	!	!	!LO:SIC:v:t=custos ff	!	!	!	!	!	!	!	!	!	!	!
.	.	16cc\JJ	.	16ee-X\JJ	.	.	.	.	.	.	.	.	.	.	.
!	!	!	!	!LO:LB:g=original	!	!	!	!	!	!LO:LB:g=original	!	!	!	!	!
=-	=-	=-	=-	=-	=-	=-	=-	=-	=-	=-	=-	=-	=-	=-	=-
8B-\L	.	8dd\L	.	8ff\L	.	8B-\	Vir-	8B-\	Vir-	8f\	Vir-	8dd\	Vir-	4r	4r
8A\J	6\	8cc\J	.	8ff#X\J	.	8A\	-go	8c,<\	-go	8f#X\	-go	8cc,<\	-go	.	.
=63	=63	=63	=63	=63	=63	=63	=63	=63	=63	=63	=63	=63	=63	=63	=63
*	*	*	*	*	*	*	*	*	*ij	*	*ij	*	*ij	*	*
!	!	!	!	!LO:TX:t=P:problem:mixed beam	!	!	!	!	!	!	!	!	!	!	!
4G\	.	16b-\LL	.	16gg\LL	.	8G\	Vir-	8d\	Vir-	8g\	Vir-	8b-\	Vir-	0r	1r
.	.	16b-\	.	16g\	.	.	.	.	.	.	.	.	.	.	.
.	.	16dd\	.	16b-\	.	8G,<\	-go	8d,<\	-go	8g,<\	-go	8b-,<\	-go	.	.
*	*	*	*	*	*	*	*	*	*Xij	*	*Xij	*	*Xij	*	*
.	.	16b-\JJ	.	16dd\JJ	.	.	.	.	.	.	.	.	.	.	.
!	!	!LO:TX:t=P:problem:mixed beam	!	!	!	!	!	!	!	!	!	!	!	!	!
8G\L	.	8bb-\L	.	8gg\L	.	8G\	glo-	8d\	glo-	8g\	glo-	8b-\	glo-	.	.
8F\J	6	8a/J	.	8dd\J	.	8F\	-ri-	8f\	-ri-	8d\	-ri-	8a\	-ri-	.	.
4E-X\	.	8b-\L	.	8ee-X\L	.	8E-X\	-o-	8G/	-o-	8e-X\	-o-	8b-\	-o-	.	.
!	!	!	!	!	!	!	!	!	!	!	!	!LO:SIC:v:t=custos bn	!	!	!
.	.	8b-\	.	8ee-\	.	8E-,<\	-sa	8G,</	-sa	8e-\	-sa	8b-\	-sa	.	.
!	!	!	!	!	!	!	!	!	!	!	!	!LO:LB:g=original	!	!	!
=-	=-	=-	=-	=-	=-	=-	=-	=-	=-	=-	=-	=-	=-	=-	=-
4D\	6\	8.bnt\	.	8ffn\	.	8D/	glo-	8.d\	glo-	8.f\	glo-	8.bn\	glo-	.	.
.	.	.	.	8ff\J	.	8D/	-ri-	.	.	.	.	.	.	.	.
.	.	16b\Jk	.	.	.	.	.	16d\	-ri-	16f\	-ri-	16b\	-ri-	.	.
=64	=64	=64	=64	=64	=64	=64	=64	=64	=64	=64	=64	=64	=64	=64	=64
!LO:TX:a:t=P:problem:znak cyfrowania nad nutą	!	!	!	!	!	!	!	!	!	!	!	!	!	!	!
4C/	-	8ee-X\L	.	8gg\L	.	8C/	-o-	8e-X\	-o-	8e-X\	-o-	8cc\	-o-	.	1r
.	.	8cc\	.	8ee-X\	.	8C,</	-sa	8e-,<\	-sa	8e-,<\	-sa	8cc\	-sa	.	.
8c\L	.	8ee-\	.	8gg\	.	8c\L	et	(8e-\L	et	4g\	et	4g/	et	.	.
8B-X\J	6	8dd\J	.	8gg\J	.	8B-X\J	.	8d\J)	.	.	.	.	.	.	.
4An\	6\	8cc\L	.	8ff#X\L	.	4An\	be-	4c\	be-	4f#X\	be-	4an\	be-	.	.
.	.	8cc\	.	8ff#\J	.	.	.	.	.	.	.	.	.	.	.
4G\	-	8b-\	.	[<4gg\	.	4G\	-ne-	4d\	-ne-	4g\	-ne-	4b-\	-ne-	.	.
!	!	!LO:SIC:v:t=custos a	!	!	!	!	!	!	!	!	!	!	!	!	!
.	.	8b-\J	.	.	.	.	.	.	.	.	.	.	.	.	.
!	!	!LO:LB:g=original	!	!	!	!	!	!	!	!	!	!	!	!	!
=65	=65	=65	=65	=65	=65	=65	=65	=65	=65	=65	=65	=65	=65	=65	=65
!LO:TX:a:t=P:problem:znak cyfrowania nad nutą	!	!	!	!	!	!	!	!	!	!	!	!	!	!	!
4C/	6 5 -	8a\L	.	4gg\]	.	4C/	-di-	4e-X\	-di-	(4g\	-di-	2at\	-di-	4r	4r
.	.	8a\	.	.	.	.	.	.	.	.	.	.	.	.	.
!LO:TX:a:t=P:problem:znak cyfrowania nad nutą	!	!	!	!	!	!	!	!	!	!	!	!	!	!	!
4D/	#	8a\	.	4ff#Xt\	.	4D/	.	4d\	.	4f#X\)	.	.	.	16d/LL	16d/LL
.	.	.	.	.	.	.	.	.	.	.	.	.	.	16d/	16d/
.	.	8dd\J	.	.	.	.	.	.	.	.	.	.	.	16d/	16d/
.	.	.	.	.	.	.	.	.	.	.	.	.	.	16d/JJ	16d/JJ
4GG/	.	4bn\	.	4gg\	.	4GG/	-cta	4Bn\	-cta	4g\	-cta	4g,<\	-cta	4d/	4d/
!LO:SIC:v:t=custos BB”	!	!	!	!	!	!	!	!LO:SIC:v:t=custos d	!	!	!	!	!	!	!LO:SIC:v:t=custos B
4r	.	4r	.	4r	.	4r	.	4r	.	4r	.	8b-\	be-	4r	4r
.	.	.	.	.	.	.	.	.	.	.	.	8b-\	-ne-	.	.
!LO:LB:g=original	!	!	!	!	!	!	!	!LO:LB:g=original	!	!	!	!	!	!	!LO:LB:g=original
=66	=66	=66	=66	=66	=66	=66	=66	=66	=66	=66	=66	=66	=66	=66	=66
4r	.	4r	.	4r	.	4r	.	4r	.	4r	.	4b-\	-di-	4r	4r
8BB-/L	.	8dd\L	.	8ffn\L	.	8BB-/	be-	8d\	be-	8fn\	be-	4b-\	-cta	8B-/L	8B-/L
!	!	!	!	!	!	!LO:SIC:v:t=custos E-	!	!	!	!	!	!	!	!	!
8BB-/J	.	8dd\J	.	8bb-X\J	.	8BB-/	-ne-	8d\	-ne-	8f\	-ne-	.	.	8B-/J	8B-/J
!	!	!	!	!	!	!LO:LB:g=original	!	!	!	!	!	!	!	!	!
=-	=-	=-	=-	=-	=-	=-	=-	=-	=-	=-	=-	=-	=-	=-	=-
4E-\	.	8b-X\L	.	4gg\	.	4E-\	-di-	4e-\	-di-	4g\	-di-	8r	.	4B-/	4B-/
.	.	8cc\J	.	.	.	.	.	.	.	.	.	8b-\	et	.	.
!	!	!	!	!	!	!	!	!	!	!	!	!	!	!LO:SIC:v:t=custos b	!
4D\	6	4dd\	.	4ff\	.	4D\	-cta	4B-X\	-cta	4f\	-cta	8b-\	be-	4B-/	4B-/
.	.	.	.	.	.	.	.	.	.	.	.	8b-\	-ne-	.	.
!	!	!	!	!	!	!	!	!	!	!LO:LB:g=original	!	!	!	!LO:LB:g=original	!
=67	=67	=67	=67	=67	=67	=67	=67	=67	=67	=67	=67	=67	=67	=67	=67
8r	.	8r	.	8r	.	8r	.	8r	.	8r	.	8b-\	-di-	8r	8r
8D\L	6_	8b-\L	.	8ff\L	.	8D\	et	8B-\	et	8f\	et	8b-,<\	-cta	8b-\L	8b-\L
8D\	X	8dd\	.	8bb-\	.	8D\	be-	8d\	be-	8f\	be-	8b-\	be-	8b-\	8b-\
8D\J	.	8dd\J	.	8ff\J	.	8D\	-ne-	8B-\	-ne-	8f\	-ne-	8b-\	-ne-	8b-\J	8b-\J
4E-X\	.	4b-X\	.	4gg\	.	4E-X\	-di-	4e-\	-di-	4g\	-di-	4b-\	-di-	4b-\	4b-\
!LO:TX:t=P:problem:bemol na 2 linii	!	!	!	!LO:SIC:v:t=custos een	!	!	!	!	!	!	!	!	!	!	!
4G;<\	6\	4b-;\	.	4een;\	.	4G;\	-cta	4B-X;\	-cta	4en;\	-cta,	4b-;\	-cta	4b-;\	4b-;\
!	!	!	!	!LO:LB:g=original	!	!	!	!	!	!	!	!	!	!	!
=68	=68	=68	=68	=68	=68	=68	=68	=68	=68	=68	=68	=68	=68	=68	=68
4r	.	4r	.	4r	.	4r	.	4r	.	4r	.	4r	.	4r	4r
!LO:TX:t=P:problem:bemol na 2 linii	!	!	!	!	!	!	!	!	!	!	!	!	!	!	!
8G\L	6\	8b-\L	.	8een\L|	.	8G\	be-	8B-\	be-	8en\	be-	8b-\	be-	8B-/L	8B-/L
!	!	!	!	!	!	!	!	!	!	!	!	!LO:SIC:v:t=custos b	!	!	!
8G\J	.	8b-\J	.	8ee\J|	.	8G\	-ne-	8B-\	-ne-	8e\	-ne-	8b-\	-ne-	8B-/J	8B-/J
!	!	!	!	!	!	!	!	!	!	!	!	!LO:LB:g=original	!	!	!
=-	=-	=-	=-	=-	=-	=-	=-	=-	=-	=-	=-	=-	=-	=-	=-
4F\	5 4	4cc\	.	4ff\	.	4F\	-di-	2c\	-di-	2fT\	-di-	(4b-\	-di-	8f/L	8f/L
.	.	.	.	.	.	.	.	.	.	.	.	.	.	16f/L	16f/L
.	.	.	.	.	.	.	.	.	.	.	.	.	.	16f/JJ	16f/JJ
4FF/	X 3	8a\L	.	8cc\L	.	4FF/	.	.	.	.	.	4a\)	.	16f/LL	16f/LL
.	.	.	.	.	.	.	.	.	.	.	.	.	.	16f/	16f/
.	.	8cc\J	.	8aa\J	.	.	.	.	.	.	.	.	.	16f/	16f/
.	.	.	.	.	.	.	.	.	.	.	.	.	.	16f/JJ	16f/JJ
=69	=69	=69	=69	=69	=69	=69	=69	=69	=69	=69	=69	=69	=69	=69	=69
4BB-/	.	16dd\LL	.	16bb-\LL	.	4BB-,</	-cta	4d,<\	-cta	4f,<\	-cta,	8b-,<\	-cta	8d/	8d/
.	.	16b-\	.	16dd\	.	.	.	.	.	.	.	.	.	.	.
.	.	16cc\	.	16ee-X\	.	.	.	.	.	.	.	8b-\	et	8r	8r
.	.	16dd\JJ	.	16ff\JJ	.	.	.	.	.	.	.	.	.	.	.
8E-X\L	.	8ee-X\L	.	8gg\L	.	8E-\	be-	8e-X\	be-	8g\	be-	8b-\	be-	16B-/LL	16B-/LL
.	.	.	.	.	.	.	.	.	.	.	.	.	.	16B-/	16B-/
8D\J	6	8ff\J	.	8bb-\J	.	8D\	-ne-	8B-\	-ne-	8f\	-ne-	8b-\	-ne-	16B-/	16B-/
.	.	.	.	.	.	.	.	.	.	.	.	.	.	16B-/JJ	16B-/JJ
4E-\	.	4ee-X\	.	4gg\|	.	4E-\	-di-	4e-\	-di-	4g\	-di-	4b-\	-di-	4B-/|	4B-/|
.	.	.	.	.	.	.	.	.	.	.	.	.	.	.	.
!	!	!	!	!LO:TX:b:t=O[btulit]. ad M[aiorem] D[ei]. G[loria]m.	!	!	!	!	!	!	!	!	!	!	!
!LO:TX:a:t=O[btulit]. ad M[aiorem] D[ei]. G[loria]m.	!	!LO:TX:b:t=O[btulit]. ad M[aiorem] D[ei]. G[loria]m.	!	!	!	!LO:TX:b:t=O[btulit]. ad M[aiorem]D[ei]. G[loria]m.	!	!LO:TX:b:t=O[btulit]. ad M[aiorem] D[ei]. G[loria]m.	!	!LO:TX:b:t=O[btulit]. ad M[aiorem] D[ei]. G[loria]m.	!	!LO:TX:b:t=O[btulit]. ad M[aiorem] D[ei]. G[loria]m.	!	!LO:TX:b:t=O[btulit]. ad M[aiorem] D[ei]. G[loria]m.	!LO:TX:a:t=O[btulit] ad M[aiorem] D[ei] G[loria]m.
4BB-/	.	4dd\	.	4bb-\|	.	4BB-/	-cta.	4d\	-cta.	4f\	-cta.	4b-\	-cta.	4B-/|	4B-/|
!LO:PB:g=original	!	!LO:PB:g=original	!	!LO:PB:g=original	!	!LO:PB:g=original	!	!LO:PB:g=original	!	!LO:PB:g=original	!	!LO:PB:g=original	!	!LO:PB:g=original	!LO:PB:g=original
==	==	==	==	==	==	==	==	==	==	==	==	==	==	==	==
*-	*-	*-	*-	*-	*-	*-	*-	*-	*-	*-	*-	*-	*-	*-	*-
!!!system-decoration: [(s1,s2)][(s3,s4,s5,s6)][(s7,s8)]s9
!!!ENC: Marta Chmielewska
!!!END: 2021-03-26
!!!RDF**kern: < = below
!!!RDF**kern: > = above
!!!ENC: Tomasz Grochalski
!!!END: 2021-03-24
!!!RDF**kern: | = vertical stroke
